; G-Code generated by Simplify3D(R) Version 3.0.2
; Sep 10, 2015 at 10:07:28 AM
; Settings Summary
;   processName,Process1
;   applyToModels,vase
;   profileName,Maker Farm Pegasys Lite6 1.75mm ABS (modified)
;   profileVersion,2015-07-28 14:01:23
;   baseProfile,Default
;   printMaterial,ABS
;   printQuality,Fast
;   printExtruders,
;   extruderName,Extruder 1
;   extruderToolheadNumber,0
;   extruderDiameter,0.4
;   extruderAutoWidth,1
;   extruderWidth,0.48
;   extrusionMultiplier,1
;   extruderUseRetract,1
;   extruderRetractionDistance,1
;   extruderExtraRestartDistance,0
;   extruderRetractionZLift,0
;   extruderRetractionSpeed,1800
;   extruderUseCoasting,0
;   extruderCoastingDistance,0.2
;   extruderUseWipe,0
;   extruderWipeDistance,5
;   primaryExtruder,0
;   layerHeight,0.3
;   topSolidLayers,0
;   bottomSolidLayers,3
;   perimeterOutlines,1
;   printPerimetersInsideOut,1
;   startPointOption,2
;   startPointOriginX,0
;   startPointOriginY,0
;   startPointOriginZ,300
;   sequentialIslands,0
;   spiralVaseMode,1
;   firstLayerHeightPercentage,90
;   firstLayerWidthPercentage,100
;   firstLayerUnderspeed,0.5
;   useRaft,0
;   raftExtruder,0
;   raftLayers,3
;   raftOffset,3
;   raftSeparationDistance,0.14
;   raftInfill,85
;   disableRaftBaseLayers,0
;   useSkirt,0
;   skirtExtruder,0
;   skirtLayers,1
;   skirtOutlines,2
;   skirtOffset,4
;   usePrimePillar,0
;   primePillarExtruder,999
;   primePillarWidth,12
;   primePillarLocation,7
;   primePillarSpeedMultiplier,1
;   useOozeShield,0
;   oozeShieldExtruder,999
;   oozeShieldOffset,2
;   oozeShieldOutlines,1
;   oozeShieldSidewallShape,1
;   oozeShieldSidewallAngle,30
;   oozeShieldSpeedMultiplier,1
;   infillExtruder,0
;   internalInfillPattern,Rectilinear
;   externalInfillPattern,Rectilinear
;   infillPercentage,0
;   outlineOverlapPercentage,15
;   infillExtrusionWidthPercentage,100
;   minInfillLength,5
;   infillLayerInterval,1
;   infillAngles,45,-45
;   overlapInfillAngles,0
;   generateSupport,0
;   supportExtruder,0
;   supportInfillPercentage,25
;   supportExtraInflation,0
;   denseSupportLayers,0
;   denseSupportInfillPercentage,70
;   supportLayerInterval,1
;   supportHorizontalPartOffset,0.3
;   supportUpperSeparationLayers,1
;   supportLowerSeparationLayers,1
;   supportType,0
;   supportGridSpacing,4
;   maxOverhangAngle,45
;   supportAngles,0
;   temperatureName,Extruder 1 Temperature,Heated Bed
;   temperatureNumber,0,0
;   temperatureSetpointCount,1,1
;   temperatureSetpointLayers,1,1
;   temperatureSetpointTemperatures,240,110
;   temperatureStabilizeAtStartup,1,1
;   temperatureHeatedBed,0,1
;   temperatureRelayBetweenLayers,0,0
;   temperatureRelayBetweenLoops,0,0
;   fanLayers,1
;   fanSpeeds,0
;   blipFanToFullPower,0
;   adjustSpeedForCooling,1
;   minSpeedLayerTime,15
;   minCoolingSpeedSlowdown,20
;   increaseFanForCooling,0
;   minFanLayerTime,45
;   maxCoolingFanSpeed,100
;   increaseFanForBridging,0
;   bridgingFanSpeed,100
;   use5D,1
;   relativeEdistances,0
;   allowEaxisZeroing,1
;   independentExtruderAxes,0
;   includeM10123,0
;   stickySupport,1
;   applyToolheadOffsets,0
;   gcodeXoffset,0
;   gcodeYoffset,0
;   gcodeZoffset,0
;   overrideMachineDefinition,1
;   machineTypeOverride,0
;   strokeXoverride,200
;   strokeYoverride,200
;   strokeZoverride,180
;   originOffsetXoverride,0
;   originOffsetYoverride,0
;   originOffsetZoverride,0
;   homeXdirOverride,-1
;   homeYdirOverride,-1
;   homeZdirOverride,-1
;   flipXoverride,1
;   flipYoverride,-1
;   flipZoverride,1
;   toolheadOffsets,0,0|0,0|0,0|0,0|0,0|0,0
;   overrideFirmwareConfiguration,1
;   firmwareTypeOverride,RepRap (Marlin/Repetier/Sprinter)
;   GPXconfigOverride,r2
;   baudRateOverride,250000
;   overridePrinterModels,0
;   printerModelsOverride
;   startingGcode,G28 ; home all axes
;   layerChangeGcode,
;   retractionGcode,
;   toolChangeGcode,
;   endingGcode,M104 S0 ; turn off extruder,M140 S0 ; turn off bed,G28 X0  ; home X axis,G28 Y0  ; home Y axis,M84 ; disable motors
;   createX3G,0
;   celebration,0
;   celebrationSong,Random Song
;   createMB5G,0
;   postProcessing,
;   defaultSpeed,4000
;   outlineUnderspeed,0.5
;   solidInfillUnderspeed,0.8
;   supportUnderspeed,0.8
;   rapidXYspeed,4800
;   rapidZspeed,1000
;   minBridgingArea,50
;   bridgingExtraInflation,0
;   bridgingExtrusionMultiplier,1
;   bridgingSpeedMultiplier,1
;   filamentDiameter,1.75
;   filamentPricePerKg,25
;   filamentDensity,1.25
;   useMinPrintHeight,0
;   minPrintHeight,0
;   useMaxPrintHeight,0
;   maxPrintHeight,80
;   useDiaphragm,0
;   diaphragmLayerInterval,20
;   robustSlicing,1
;   mergeAllIntoSolid,0
;   onlyRetractWhenCrossingOutline,1
;   retractBetweenLayers,1
;   useRetractionMinTravel,0
;   retractionMinTravel,3
;   retractWhileWiping,0
;   onlyWipeOutlines,1
;   avoidCrossingOutline,0
;   maxMovementDetourFactor,3
;   toolChangeRetractionDistance,12
;   toolChangeExtraRestartDistance,-0.5
;   toolChangeRetractionSpeed,600
;   allowThinWallGapFill,1
;   thinWallAllowedOverlapPercentage,10
;   horizontalSizeCompensation,-0.2
G90
M82
M106 S0
M140 S110
M190 S110
M104 S240 T0
M109 S240 T0
G28 ; home all axes
G92 E0
G1 E-1.0000 F1800
G1 Z0.270 F1000
; layer 1, Z = 0.27
T0
; tool H0.300 W0.480
; outer perimeter
G1 X87.462 Y86.441 F4800
G1 E0.0000 F540
G92 E0
G1 X88.620 Y85.376 E0.0942 F1000
G1 X89.817 Y84.456 E0.1846
G1 X91.022 Y83.687 E0.2702
G1 X92.288 Y83.024 E0.3557
G1 X93.816 Y82.389 E0.4548
G1 X95.171 Y81.964 E0.5398
G1 X95.384 Y81.915 E0.5529
G1 X96.574 Y81.651 E0.6259
G1 X97.990 Y81.459 E0.7114
G1 X99.643 Y81.383 E0.8105
G1 X101.070 Y81.447 E0.8960
G1 X102.487 Y81.631 E0.9815
G1 X104.102 Y81.992 E1.0806
G1 X105.463 Y82.427 E1.1661
G1 X106.783 Y82.975 E1.2517
G1 X108.052 Y83.632 E1.3373
G1 X109.447 Y84.522 E1.4363
G1 X110.578 Y85.395 E1.5219
G1 X111.635 Y86.363 E1.6077
G1 X111.778 Y86.514 E1.6201
G1 X112.600 Y87.411 E1.6930
G1 X113.563 Y88.660 E1.7874
G1 X114.373 Y89.931 E1.8776
G1 X115.034 Y91.198 E1.9632
G1 X115.585 Y92.516 E2.0487
G1 X116.085 Y94.094 E2.1478
G1 X116.390 Y95.483 E2.2329
G1 X116.580 Y96.905 E2.3188
G1 X116.648 Y98.558 E2.4179
G1 X116.580 Y99.986 E2.5034
G1 X116.391 Y101.403 E2.5890
G1 X116.085 Y102.798 E2.6745
G1 X115.585 Y104.376 E2.7736
G1 X115.034 Y105.694 E2.8592
G1 X114.373 Y106.962 E2.9448
G1 X113.608 Y108.168 E3.0303
G1 X112.600 Y109.481 E3.1293
G1 X111.632 Y110.531 E3.2149
G1 X110.578 Y111.497 E3.3005
G1 X109.441 Y112.375 E3.3865
G1 X109.271 Y112.493 E3.3989
G1 X108.053 Y113.260 E3.4850
G1 X106.783 Y113.917 E3.5706
G1 X105.463 Y114.465 E3.6562
G1 X104.102 Y114.900 E3.7417
G1 X102.487 Y115.261 E3.8408
G1 X101.072 Y115.445 E3.9262
G1 X100.860 Y115.456 E3.9390
G1 X99.642 Y115.509 E4.0119
G1 X98.214 Y115.453 E4.0975
G1 X96.573 Y115.241 E4.1965
G1 X95.179 Y114.930 E4.2821
G1 X93.816 Y114.503 E4.3676
G1 X92.288 Y113.868 E4.4666
G1 X91.022 Y113.205 E4.5522
G1 X89.817 Y112.436 E4.6378
G1 X88.681 Y111.569 E4.7233
G1 X87.461 Y110.451 E4.8224
G1 X86.499 Y109.395 E4.9079
G1 X85.628 Y108.261 E4.9935
G1 X84.857 Y107.058 E5.0790
G1 X84.092 Y105.591 E5.1781
G1 X83.552 Y104.282 E5.2629
G1 X83.117 Y102.908 E5.3492
G1 X82.764 Y101.292 E5.4482
G1 X82.583 Y99.875 E5.5338
G1 X82.523 Y98.444 E5.6195
G1 X82.530 Y98.235 E5.6320
G1 X82.583 Y97.018 E5.7049
G1 X82.764 Y95.600 E5.7905
G1 X83.106 Y94.029 E5.8868
G1 X83.548 Y92.621 E5.9751
G1 X84.094 Y91.294 E6.0610
G1 X84.184 Y91.108 E6.0734
G1 X84.856 Y89.835 E6.1596
G1 X85.628 Y88.631 E6.2452
G1 X86.499 Y87.497 E6.3308
G1 X87.462 Y86.441 E6.4164
; solid layer
G1 X86.430 Y88.257 F4800
G92 E0
G1 X89.383 Y85.304 E0.2500 F1600
G1 X90.052 Y84.790 E0.3005
G1 X91.227 Y84.041 E0.3840
G1 X91.433 Y83.933 E0.3979
G1 X85.079 Y90.286 E0.9358
G1 X84.548 Y91.292 E1.0039
G1 X84.467 Y91.461 E1.0151
G1 X84.385 Y91.659 E1.0280
G1 X92.786 Y83.258 E1.7393
G1 X93.948 Y82.776 E1.8146
G1 X83.917 Y92.806 E2.6638
G1 X83.607 Y93.795 E2.7259
G1 X94.937 Y82.465 E3.6852
G1 X95.279 Y82.358 E3.7066
G1 X95.474 Y82.313 E3.7186
G1 X95.852 Y82.229 E3.7418
G1 X83.376 Y94.705 E4.7981
G1 X83.187 Y95.573 E4.8513
G1 X96.717 Y82.043 E5.9968
G1 X97.502 Y81.937 E6.0443
G1 X83.078 Y96.361 E7.2655
G1 X82.990 Y97.053 E7.3072
G1 X82.987 Y97.131 E7.3119
G1 X98.263 Y81.855 E8.6053
G1 X98.974 Y81.822 E8.6479
G1 X82.956 Y97.841 E10.0042
G1 X82.938 Y98.250 E10.0287
G1 X82.931 Y98.443 E10.0402
G1 X82.935 Y98.540 E10.0461
G1 X99.682 Y81.793 E11.4639
G1 X100.331 Y81.822 E11.5029
G1 X82.963 Y99.191 E12.9734
G1 X82.990 Y99.840 E13.0123
G1 X82.990 Y99.842 E13.0124
G1 X100.981 Y81.852 E14.5357
G1 X101.035 Y81.854 E14.5389
G1 X101.586 Y81.926 E14.5722
G1 X83.067 Y100.445 E16.1401
G1 X83.144 Y101.047 E16.1764
G1 X102.187 Y82.004 E17.7887
G1 X102.416 Y82.034 E17.8026
G1 X102.759 Y82.110 E17.8236
G1 X83.252 Y101.617 E19.4751
G1 X83.374 Y102.174 E19.5093
G1 X103.314 Y82.234 E21.1975
G1 X103.869 Y82.358 E21.2315
G1 X83.496 Y102.731 E22.9564
G1 X83.512 Y102.803 E22.9608
G1 X83.654 Y103.252 E22.9890
G1 X104.392 Y82.513 E24.7449
G1 X104.907 Y82.678 E24.7772
G1 X83.817 Y103.767 E26.5628
G1 X83.936 Y104.142 E26.5864
G1 X83.990 Y104.273 E26.5949
G1 X105.415 Y82.849 E28.4088
G1 X105.895 Y83.048 E28.4399
G1 X84.188 Y104.754 E30.2777
G1 X84.386 Y105.235 E30.3089
G1 X106.374 Y83.247 E32.1705
G1 X106.611 Y83.345 E32.1859
G1 X106.838 Y83.462 E32.2012
G1 X84.606 Y105.694 E34.0835
G1 X84.838 Y106.140 E34.1136
G1 X107.285 Y83.694 E36.0140
G1 X107.732 Y83.925 E36.0442
G1 X85.071 Y106.586 E37.9628
G1 X85.210 Y106.854 E37.9809
G1 X85.317 Y107.020 E37.9927
G1 X108.155 Y84.181 E39.9263
G1 X108.569 Y84.446 E39.9557
G1 X85.582 Y107.433 E41.9020
G1 X85.847 Y107.847 E41.9314
G1 X108.984 Y84.710 E43.8903
G1 X109.212 Y84.856 E43.9065
G1 X109.384 Y84.989 E43.9195
G1 X86.129 Y108.243 E45.8884
G1 X86.424 Y108.628 E45.9174
G1 X109.767 Y85.284 E47.8938
G1 X110.150 Y85.580 E47.9228
G1 X86.719 Y109.012 E49.9066
G1 X86.812 Y109.133 E49.9158
G1 X87.033 Y109.376 E49.9355
G1 X110.517 Y85.892 E51.9237
G1 X110.871 Y86.217 E51.9525
G1 X87.357 Y109.731 E53.9434
G1 X87.681 Y110.086 E53.9721
G1 X111.225 Y86.541 E55.9656
G1 X111.349 Y86.654 E55.9756
G1 X111.479 Y86.792 E55.9869
G1 X111.563 Y86.883 E55.9943
G1 X88.028 Y110.417 E57.9869
G1 X88.383 Y110.742 E58.0156
G1 X111.887 Y87.237 E60.0057
G1 X112.212 Y87.591 E60.0345
G1 X88.737 Y111.066 E62.0220
G1 X88.944 Y111.256 E62.0388
G1 X89.104 Y111.378 E62.0509
G1 X112.514 Y87.968 E64.0329
G1 X112.809 Y88.351 E64.0619
G1 X89.489 Y111.672 E66.0364
G1 X89.874 Y111.966 E66.0654
G1 X113.105 Y88.735 E68.0323
G1 X113.228 Y88.895 E68.0444
G1 X113.382 Y89.136 E68.0615
G1 X90.275 Y112.244 E70.0180
G1 X90.689 Y112.508 E70.0474
G1 X113.647 Y89.551 E71.9911
G1 X113.911 Y89.965 E72.0206
G1 X91.104 Y112.773 E73.9516
G1 X91.227 Y112.851 E73.9604
G1 X91.540 Y113.015 E73.9815
G1 X114.157 Y90.398 E75.8964
G1 X114.389 Y90.845 E75.9265
G1 X91.985 Y113.249 E77.8234
G1 X92.430 Y113.482 E77.8535
G1 X114.622 Y91.291 E79.7324
G1 X114.664 Y91.372 E79.7378
G1 X114.828 Y91.764 E79.7633
G1 X92.907 Y113.684 E81.6192
G1 X93.387 Y113.883 E81.6503
G1 X115.028 Y92.242 E83.4826
G1 X115.201 Y92.657 E83.5095
G1 X115.223 Y92.726 E83.5138
G1 X93.866 Y114.083 E85.3220
G1 X93.955 Y114.120 E85.3277
G1 X94.376 Y114.252 E85.3542
G1 X115.387 Y93.241 E87.1330
G1 X115.550 Y93.757 E87.1654
G1 X94.893 Y114.413 E88.9143
G1 X95.284 Y114.536 E88.9389
G1 X95.420 Y114.566 E88.9472
G1 X115.707 Y94.278 E90.6649
G1 X115.830 Y94.835 E90.6990
G1 X95.975 Y114.690 E92.3800
G1 X96.530 Y114.813 E92.4141
G1 X115.952 Y95.391 E94.0585
G1 X115.988 Y95.554 E94.0685
G1 X116.044 Y95.978 E94.0941
G1 X97.122 Y114.900 E95.6962
G1 X97.723 Y114.978 E95.7325
G1 X116.124 Y96.577 E97.2904
G1 X116.173 Y96.940 E97.3124
G1 X116.183 Y97.197 E97.3278
G1 X98.331 Y115.049 E98.8392
G1 X98.984 Y115.075 E98.8784
G1 X116.210 Y97.849 E100.3368
G1 X116.237 Y98.501 E100.3759
G1 X99.637 Y115.100 E101.7814
G1 X99.641 Y115.101 E101.7816
G1 X100.346 Y115.070 E101.8239
G1 X116.208 Y99.208 E103.1668
G1 X116.174 Y99.921 E103.2096
G1 X101.060 Y115.035 E104.4892
G1 X101.841 Y114.933 E104.5363
G1 X116.073 Y100.701 E105.7413
G1 X115.989 Y101.332 E105.7795
G1 X115.952 Y101.500 E105.7898
G1 X102.646 Y114.807 E106.9164
G1 X103.520 Y114.612 E106.9700
G1 X115.761 Y102.371 E108.0064
G1 X115.690 Y102.692 E108.0262
G1 X115.492 Y103.319 E108.0655
G1 X104.450 Y114.360 E109.0003
G1 X105.323 Y114.082 E109.0552
G1 X105.468 Y114.022 E109.0646
G1 X115.163 Y104.326 E109.8855
G1 X114.676 Y105.492 E109.9612
G1 X106.632 Y113.536 E110.6423
G1 X107.850 Y112.905 E110.7244
G1 X108.097 Y112.750 E110.7419
G1 X113.898 Y106.949 E111.2330
G1 X113.273 Y107.934 E111.3029
G1 X112.288 Y109.218 E111.3997
G1 X112.050 Y109.476 E111.4207
G1 X110.622 Y110.903 E111.5416
G92 E0
G1 E-1.0000 F1800
; layer 2, Z = 0.57
; outer perimeter
G1 X110.522 Y111.329 F4800
G1 Z0.570 F1000
G1 E0.0000 F1800
G92 E0
G1 X109.502 Y112.128 E0.0776 F2000
G1 X108.940 Y112.516 E0.1184
G1 X107.834 Y113.194 E0.1961
G1 X106.685 Y113.782 E0.2734
G1 X105.492 Y114.279 E0.3508
G1 X104.261 Y114.684 E0.4283
G1 X103.601 Y114.858 E0.4692
G1 X102.331 Y115.120 E0.5468
G1 X101.058 Y115.280 E0.6236
G1 X100.359 Y115.317 E0.6656
G1 X99.760 Y115.344 E0.7014
G1 X98.464 Y115.305 E0.7791
G1 X97.783 Y115.246 E0.8200
G1 X96.501 Y115.060 E0.8976
G1 X95.240 Y114.777 E0.9749
G1 X94.006 Y114.396 E1.0523
G1 X92.800 Y113.919 E1.1299
G1 X92.180 Y113.634 E1.1708
G1 X91.037 Y113.023 E1.2483
G1 X89.949 Y112.327 E1.3257
G1 X88.914 Y111.547 E1.4032
G1 X88.393 Y111.101 E1.4443
G1 X87.948 Y110.693 E1.4804
G1 X87.458 Y110.212 E1.5216
G1 X86.643 Y109.308 E1.5944
G1 X85.804 Y108.224 E1.6765
G1 X85.097 Y107.140 E1.7540
G1 X84.759 Y106.546 E1.7949
G1 X84.179 Y105.387 E1.8725
G1 X83.693 Y104.190 E1.9498
G1 X83.301 Y102.959 E2.0272
G1 X83.005 Y101.697 E2.1048
G1 X82.888 Y101.024 E2.1456
G1 X82.737 Y99.737 E2.2233
G1 X82.687 Y98.445 E2.3006
G1 X82.711 Y97.755 E2.3420
G1 X82.737 Y97.156 E2.3779
G1 X82.888 Y95.868 E2.4555
G1 X83.005 Y95.195 E2.4964
G1 X83.267 Y94.075 E2.5653
G1 X83.694 Y92.701 E2.6514
G1 X84.181 Y91.503 E2.7289
G1 X84.479 Y90.883 E2.7700
G1 X84.757 Y90.349 E2.8061
G1 X85.097 Y89.752 E2.8472
G1 X85.745 Y88.756 E2.9184
G1 X86.592 Y87.642 E3.0021
G1 X87.458 Y86.680 E3.0796
G1 X87.946 Y86.201 E3.1206
G1 X88.733 Y85.499 E3.1837
G1 X88.914 Y85.345 E3.1980
G1 X89.949 Y84.565 E3.2755
G1 X91.037 Y83.869 E3.3528
G1 X92.180 Y83.258 E3.4304
G1 X92.800 Y82.973 E3.4713
G1 X94.006 Y82.496 E3.5489
G1 X95.241 Y82.115 E3.6263
G1 X95.915 Y81.962 E3.6677
G1 X96.500 Y81.832 E3.7035
G1 X97.783 Y81.646 E3.7812
G1 X98.464 Y81.587 E3.8221
G1 X99.759 Y81.549 E3.8997
G1 X101.049 Y81.611 E3.9770
G1 X102.331 Y81.772 E4.0543
G1 X103.601 Y82.034 E4.1319
G1 X104.261 Y82.209 E4.1728
G1 X105.492 Y82.613 E4.2504
G1 X106.685 Y83.110 E4.3278
G1 X107.838 Y83.700 E4.4053
G1 X108.429 Y84.050 E4.4464
G1 X108.937 Y84.374 E4.4825
G1 X109.502 Y84.764 E4.5236
G1 X110.522 Y85.563 E4.6012
G1 X111.476 Y86.437 E4.6786
G1 X111.949 Y86.936 E4.7198
G1 X112.357 Y87.381 E4.7560
G1 X112.794 Y87.910 E4.7970
G1 X113.430 Y88.763 E4.8607
G1 X113.563 Y88.949 E4.8744
G1 X114.250 Y90.047 E4.9519
G1 X114.848 Y91.191 E5.0293
G1 X115.358 Y92.383 E5.1068
G1 X115.589 Y93.025 E5.1477
G1 X115.960 Y94.268 E5.2253
G1 X116.232 Y95.530 E5.3027
G1 X116.405 Y96.811 E5.3800
G1 X116.479 Y98.105 E5.4576
G1 X116.479 Y98.787 E5.4985
G1 X116.405 Y100.082 E5.5761
G1 X116.232 Y101.362 E5.6534
G1 X115.960 Y102.624 E5.7308
G1 X115.589 Y103.867 E5.8084
G1 X115.358 Y104.509 E5.8493
G1 X114.848 Y105.701 E5.9269
G1 X114.250 Y106.845 E6.0042
G1 X113.563 Y107.943 E6.0817
G1 X113.163 Y108.502 E6.1229
G1 X112.796 Y108.980 E6.1589
G1 X112.358 Y109.510 E6.2001
G1 X111.474 Y110.456 E6.2776
G1 X110.522 Y111.329 E6.3549
; solid layer
G1 X85.527 Y107.053 F4800
G92 E0
G1 X90.970 Y112.496 E0.4608 F3200
G1 X91.244 Y112.670 E0.4802
G1 X92.361 Y113.268 E0.5561
G1 X92.472 Y113.319 E0.5634
G1 X84.731 Y105.578 E1.2189
G1 X84.551 Y105.218 E1.2429
G1 X84.210 Y104.378 E1.2972
G1 X93.648 Y113.816 E2.0963
G1 X94.141 Y114.011 E2.1280
G1 X94.691 Y114.180 E2.1625
G1 X83.851 Y103.340 E3.0803
G1 X83.695 Y102.850 E3.1111
G1 X83.589 Y102.399 E3.1388
