; G-Code generated by Simplify3D(R) Version 3.0.2
; Sep 11, 2015 at 11:30:40 AM
; Settings Summary
;   processName,Process1
;   applyToModels,Nema14Dual
;   profileName,Maker Farm Pegasys Lite6 1.75mm ABS (modified)
;   profileVersion,2015-07-28 14:01:23
;   baseProfile,Default
;   printMaterial,ABS
;   printQuality,Fast
;   printExtruders,
;   extruderName,Extruder 1
;   extruderToolheadNumber,0
;   extruderDiameter,0.4
;   extruderAutoWidth,1
;   extruderWidth,0.48
;   extrusionMultiplier,1
;   extruderUseRetract,1
;   extruderRetractionDistance,1
;   extruderExtraRestartDistance,0
;   extruderRetractionZLift,0
;   extruderRetractionSpeed,1800
;   extruderUseCoasting,0
;   extruderCoastingDistance,0.2
;   extruderUseWipe,0
;   extruderWipeDistance,5
;   primaryExtruder,0
;   layerHeight,0.3
;   topSolidLayers,3
;   bottomSolidLayers,3
;   perimeterOutlines,1
;   printPerimetersInsideOut,1
;   startPointOption,2
;   startPointOriginX,0
;   startPointOriginY,0
;   startPointOriginZ,300
;   sequentialIslands,0
;   spiralVaseMode,0
;   firstLayerHeightPercentage,90
;   firstLayerWidthPercentage,100
;   firstLayerUnderspeed,0.5
;   useRaft,0
;   raftExtruder,0
;   raftLayers,3
;   raftOffset,3
;   raftSeparationDistance,0.14
;   raftInfill,85
;   disableRaftBaseLayers,0
;   useSkirt,0
;   skirtExtruder,0
;   skirtLayers,1
;   skirtOutlines,2
;   skirtOffset,4
;   usePrimePillar,0
;   primePillarExtruder,999
;   primePillarWidth,12
;   primePillarLocation,7
;   primePillarSpeedMultiplier,1
;   useOozeShield,0
;   oozeShieldExtruder,999
;   oozeShieldOffset,2
;   oozeShieldOutlines,1
;   oozeShieldSidewallShape,1
;   oozeShieldSidewallAngle,30
;   oozeShieldSpeedMultiplier,1
;   infillExtruder,0
;   internalInfillPattern,Rectilinear
;   externalInfillPattern,Rectilinear
;   infillPercentage,50
;   outlineOverlapPercentage,15
;   infillExtrusionWidthPercentage,100
;   minInfillLength,5
;   infillLayerInterval,1
;   infillAngles,45,-45
;   overlapInfillAngles,0
;   generateSupport,0
;   supportExtruder,0
;   supportInfillPercentage,25
;   supportExtraInflation,0
;   denseSupportLayers,0
;   denseSupportInfillPercentage,70
;   supportLayerInterval,1
;   supportHorizontalPartOffset,0.3
;   supportUpperSeparationLayers,1
;   supportLowerSeparationLayers,1
;   supportType,0
;   supportGridSpacing,4
;   maxOverhangAngle,45
;   supportAngles,0
;   temperatureName,Extruder 1 Temperature,Heated Bed
;   temperatureNumber,0,0
;   temperatureSetpointCount,1,1
;   temperatureSetpointLayers,1,1
;   temperatureSetpointTemperatures,240,110
;   temperatureStabilizeAtStartup,1,1
;   temperatureHeatedBed,0,1
;   temperatureRelayBetweenLayers,0,0
;   temperatureRelayBetweenLoops,0,0
;   fanLayers,1
;   fanSpeeds,0
;   blipFanToFullPower,0
;   adjustSpeedForCooling,1
;   minSpeedLayerTime,15
;   minCoolingSpeedSlowdown,20
;   increaseFanForCooling,0
;   minFanLayerTime,45
;   maxCoolingFanSpeed,100
;   increaseFanForBridging,0
;   bridgingFanSpeed,100
;   use5D,1
;   relativeEdistances,0
;   allowEaxisZeroing,1
;   independentExtruderAxes,0
;   includeM10123,0
;   stickySupport,1
;   applyToolheadOffsets,0
;   gcodeXoffset,0
;   gcodeYoffset,0
;   gcodeZoffset,0
;   overrideMachineDefinition,1
;   machineTypeOverride,0
;   strokeXoverride,200
;   strokeYoverride,200
;   strokeZoverride,180
;   originOffsetXoverride,0
;   originOffsetYoverride,0
;   originOffsetZoverride,0
;   homeXdirOverride,-1
;   homeYdirOverride,-1
;   homeZdirOverride,-1
;   flipXoverride,1
;   flipYoverride,-1
;   flipZoverride,1
;   toolheadOffsets,0,0|0,0|0,0|0,0|0,0|0,0
;   overrideFirmwareConfiguration,1
;   firmwareTypeOverride,RepRap (Marlin/Repetier/Sprinter)
;   GPXconfigOverride,r2
;   baudRateOverride,250000
;   overridePrinterModels,0
;   printerModelsOverride
;   startingGcode,G28 ; home all axes
;   layerChangeGcode,
;   retractionGcode,
;   toolChangeGcode,
;   endingGcode,M104 S0 ; turn off extruder,M140 S0 ; turn off bed,G28 X0  ; home X axis,G28 Y0  ; home Y axis,M84 ; disable motors
;   createX3G,0
;   celebration,0
;   celebrationSong,Random Song
;   createMB5G,0
;   postProcessing,
;   defaultSpeed,4000
;   outlineUnderspeed,0.5
;   solidInfillUnderspeed,0.8
;   supportUnderspeed,0.8
;   rapidXYspeed,4800
;   rapidZspeed,1000
;   minBridgingArea,50
;   bridgingExtraInflation,0
;   bridgingExtrusionMultiplier,1
;   bridgingSpeedMultiplier,1
;   filamentDiameter,1.75
;   filamentPricePerKg,25
;   filamentDensity,1.25
;   useMinPrintHeight,0
;   minPrintHeight,0
;   useMaxPrintHeight,0
;   maxPrintHeight,80
;   useDiaphragm,0
;   diaphragmLayerInterval,20
;   robustSlicing,1
;   mergeAllIntoSolid,0
;   onlyRetractWhenCrossingOutline,1
;   retractBetweenLayers,1
;   useRetractionMinTravel,0
;   retractionMinTravel,3
;   retractWhileWiping,0
;   onlyWipeOutlines,1
;   avoidCrossingOutline,0
;   maxMovementDetourFactor,3
;   toolChangeRetractionDistance,12
;   toolChangeExtraRestartDistance,-0.5
;   toolChangeRetractionSpeed,600
;   allowThinWallGapFill,1
;   thinWallAllowedOverlapPercentage,10
;   horizontalSizeCompensation,-0.2
G90
M82
M106 S0
M140 S110
M190 S110
M104 S240 T0
M109 S240 T0
G28 ; home all axes
G92 E0
G1 E-1.0000 F1800
G1 Z0.270 F1000
; layer 1, Z = 0.27
T0
; tool H0.300 W0.480
; outer perimeter
G1 X69.440 Y83.459 F4800
G1 E0.0000 F540
G92 E0
G1 X77.560 Y83.459 E0.4861 F1000
G1 X77.560 Y85.138 E0.5867
G1 X83.440 Y85.138 E0.9387
G1 X83.440 Y78.689 E1.3248
G1 X94.560 Y78.688 E1.9906
G1 X94.560 Y85.138 E2.3767
G1 X105.440 Y85.138 E3.0281
G1 X105.440 Y78.689 E3.4142
G1 X116.560 Y78.688 E4.0799
G1 X116.560 Y85.138 E4.4661
G1 X122.440 Y85.138 E4.8181
G1 X122.440 Y83.459 E4.9187
G1 X130.560 Y83.459 E5.4048
G1 X130.560 Y123.108 E7.7786
G1 X69.440 Y123.108 E11.4377
G1 X69.440 Y83.459 E13.8115
; outer perimeter
G1 X74.134 Y93.600 F4800
G92 E0
G1 X73.652 Y94.129 E0.0429 F1000
G1 X73.322 Y94.765 E0.0858
G1 X73.169 Y95.465 E0.1287
G1 X73.202 Y96.181 E0.1715
G1 X73.418 Y96.863 E0.2144
G1 X73.804 Y97.466 E0.2573
G1 X74.334 Y97.949 E0.3002
G1 X74.970 Y98.279 E0.3431
G1 X75.669 Y98.432 E0.3859
G1 X76.385 Y98.399 E0.4288
G1 X77.068 Y98.182 E0.4717
G1 X77.671 Y97.796 E0.5146
G1 X78.154 Y97.267 E0.5575
G1 X78.483 Y96.631 E0.6004
G1 X78.637 Y95.931 E0.6432
G1 X78.604 Y95.216 E0.6861
G1 X78.387 Y94.533 E0.7290
G1 X78.000 Y93.930 E0.7719
G1 X77.472 Y93.447 E0.8148
G1 X76.835 Y93.118 E0.8576
G1 X76.136 Y92.964 E0.9005
G1 X75.420 Y92.997 E0.9434
G1 X74.738 Y93.214 E0.9863
G1 X74.134 Y93.600 E1.0292
; outer perimeter
G1 X83.195 Y89.368 F4800
G92 E0
G1 X82.771 Y89.783 E0.0356 F1000
G1 X82.379 Y90.228 E0.0711
G1 X82.017 Y90.698 E0.1065
G1 X81.688 Y91.191 E0.1421
G1 X81.394 Y91.706 E0.1775
G1 X81.137 Y92.241 E0.2131
G1 X80.918 Y92.791 E0.2485
G1 X80.737 Y93.356 E0.2840
G1 X80.593 Y93.931 E0.3195
G1 X80.492 Y94.516 E0.3551
G1 X80.431 Y95.106 E0.3905
G1 X80.410 Y95.698 E0.4260
G1 X80.431 Y96.291 E0.4615
G1 X80.492 Y96.881 E0.4970
G1 X80.593 Y97.465 E0.5326
G1 X80.737 Y98.041 E0.5681
G1 X80.918 Y98.605 E0.6036
G1 X81.137 Y99.155 E0.6390
G1 X81.394 Y99.691 E0.6746
G1 X81.688 Y100.206 E0.7101
G1 X82.017 Y100.699 E0.7456
G1 X82.379 Y101.168 E0.7810
G1 X82.771 Y101.613 E0.8165
G1 X83.195 Y102.029 E0.8521
G1 X83.645 Y102.414 E0.8876
G1 X84.120 Y102.769 E0.9231
G1 X84.620 Y103.087 E0.9586
G1 X85.140 Y103.372 E0.9940
G1 X85.680 Y103.620 E1.0296
G1 X86.234 Y103.831 E1.0651
G1 X86.801 Y104.002 E1.1006
G1 X87.379 Y104.135 E1.1361
G1 X87.966 Y104.225 E1.1716
G1 X88.555 Y104.276 E1.2070
G1 X89.149 Y104.286 E1.2426
G1 X89.742 Y104.257 E1.2781
G1 X90.330 Y104.185 E1.3136
G1 X90.912 Y104.074 E1.3491
G1 X91.486 Y103.922 E1.3846
G1 X92.047 Y103.730 E1.4201
G1 X92.594 Y103.500 E1.4556
G1 X93.124 Y103.234 E1.4911
G1 X93.633 Y102.931 E1.5266
G1 X94.123 Y102.596 E1.5621
G1 X94.585 Y102.225 E1.5976
G1 X95.023 Y101.824 E1.6331
G1 X95.430 Y101.394 E1.6686
G1 X95.809 Y100.937 E1.7042
G1 X96.153 Y100.454 E1.7397
G1 X96.464 Y99.951 E1.7751
G1 X96.741 Y99.425 E1.8106
G1 X96.979 Y98.881 E1.8462
G1 X97.179 Y98.325 E1.8816
G1 X97.341 Y97.754 E1.9171
G1 X97.464 Y97.173 E1.9526
G1 X97.544 Y96.586 E1.9882
G1 X97.586 Y95.994 E2.0237
G1 X97.586 Y95.401 E2.0592
G1 X97.544 Y94.811 E2.0946
G1 X97.464 Y94.223 E2.1301
G1 X97.341 Y93.643 E2.1656
G1 X97.179 Y93.072 E2.2011
G1 X96.979 Y92.513 E2.2367
G1 X96.741 Y91.971 E2.2721
G1 X96.465 Y91.446 E2.3076
G1 X96.153 Y90.941 E2.3432
G1 X95.809 Y90.458 E2.3787
G1 X95.429 Y90.002 E2.4142
G1 X95.023 Y89.573 E2.4496
G1 X94.584 Y89.170 E2.4853
G1 X94.121 Y88.801 E2.5207
G1 X93.634 Y88.463 E2.5562
G1 X93.124 Y88.162 E2.5917
G1 X92.594 Y87.894 E2.6272
G1 X92.046 Y87.667 E2.6627
G1 X91.486 Y87.475 E2.6982
G1 X90.912 Y87.323 E2.7337
G1 X90.330 Y87.211 E2.7692
G1 X89.742 Y87.140 E2.8046
G1 X89.150 Y87.108 E2.8401
G1 X88.555 Y87.119 E2.8758
G1 X87.965 Y87.171 E2.9112
G1 X87.379 Y87.262 E2.9467
G1 X86.801 Y87.395 E2.9822
G1 X86.234 Y87.565 E3.0177
G1 X85.680 Y87.776 E3.0532
G1 X85.140 Y88.025 E3.0887
G1 X84.620 Y88.309 E3.1242
G1 X84.120 Y88.628 E3.1597
G1 X83.645 Y88.982 E3.1952
G1 X83.195 Y89.368 E3.2307
G92 E0
G1 E-1.0000 F1800
; outer perimeter
G1 X104.571 Y90.002 F4800
G1 E0.0000 F1800
G92 E0
G1 X104.192 Y90.458 E0.0355 F1000
G1 X103.847 Y90.941 E0.0710
G1 X103.536 Y91.446 E0.1066
G1 X103.260 Y91.971 E0.1421
G1 X103.021 Y92.513 E0.1775
G1 X102.821 Y93.072 E0.2130
G1 X102.659 Y93.643 E0.2486
G1 X102.536 Y94.223 E0.2841
G1 X102.456 Y94.811 E0.3196
G1 X102.414 Y95.401 E0.3550
G1 X102.414 Y95.994 E0.3905
G1 X102.456 Y96.586 E0.4260
G1 X102.536 Y97.173 E0.4616
G1 X102.659 Y97.754 E0.4971
G1 X102.821 Y98.325 E0.5326
G1 X103.021 Y98.881 E0.5680
G1 X103.260 Y99.425 E0.6036
G1 X103.536 Y99.951 E0.6391
G1 X103.847 Y100.454 E0.6745
G1 X104.191 Y100.937 E0.7100
G1 X104.571 Y101.394 E0.7456
G1 X104.978 Y101.824 E0.7810
G1 X105.416 Y102.225 E0.8166
G1 X105.878 Y102.596 E0.8521
G1 X106.367 Y102.931 E0.8876
G1 X106.877 Y103.234 E0.9231
G1 X107.406 Y103.500 E0.9585
G1 X107.954 Y103.730 E0.9941
G1 X108.514 Y103.922 E1.0296
G1 X109.088 Y104.074 E1.0651
G1 X109.670 Y104.185 E1.1006
G1 X110.259 Y104.257 E1.1361
G1 X110.851 Y104.286 E1.1716
G1 X111.445 Y104.276 E1.2071
G1 X112.035 Y104.225 E1.2426
G1 X112.621 Y104.135 E1.2781
G1 X113.199 Y104.002 E1.3136
G1 X113.766 Y103.831 E1.3491
G1 X114.321 Y103.620 E1.3846
G1 X114.860 Y103.372 E1.4201
G1 X115.380 Y103.087 E1.4556
G1 X115.880 Y102.769 E1.4911
G1 X116.355 Y102.414 E1.5266
G1 X116.805 Y102.029 E1.5621
G1 X117.230 Y101.613 E1.5976
G1 X117.622 Y101.168 E1.6332
G1 X117.984 Y100.699 E1.6686
G1 X118.313 Y100.206 E1.7042
G1 X118.606 Y99.691 E1.7396
G1 X118.863 Y99.155 E1.7752
G1 X119.083 Y98.605 E1.8106
G1 X119.264 Y98.041 E1.8461
G1 X119.407 Y97.465 E1.8816
G1 X119.508 Y96.881 E1.9171
G1 X119.569 Y96.291 E1.9527
G1 X119.590 Y95.698 E1.9881
G1 X119.569 Y95.106 E2.0236
G1 X119.508 Y94.516 E2.0591
G1 X119.407 Y93.931 E2.0947
G1 X119.264 Y93.356 E2.1302
G1 X119.083 Y92.791 E2.1657
G1 X118.863 Y92.241 E2.2011
G1 X118.606 Y91.706 E2.2367
G1 X118.313 Y91.191 E2.2721
G1 X117.984 Y90.698 E2.3076
G1 X117.622 Y90.228 E2.3431
G1 X117.230 Y89.783 E2.3787
G1 X116.805 Y89.368 E2.4142
G1 X116.355 Y88.982 E2.4497
G1 X115.880 Y88.628 E2.4852
G1 X115.380 Y88.309 E2.5207
G1 X114.860 Y88.025 E2.5562
G1 X114.321 Y87.776 E2.5917
G1 X113.766 Y87.565 E2.6272
G1 X113.199 Y87.395 E2.6627
G1 X112.621 Y87.262 E2.6982
G1 X112.035 Y87.171 E2.7337
G1 X111.445 Y87.119 E2.7691
G1 X110.850 Y87.108 E2.8048
G1 X110.258 Y87.140 E2.8403
G1 X109.670 Y87.211 E2.8757
G1 X109.088 Y87.323 E2.9112
G1 X108.514 Y87.475 E2.9467
G1 X107.954 Y87.667 E2.9822
G1 X107.406 Y87.894 E3.0177
G1 X106.877 Y88.162 E3.0532
G1 X106.367 Y88.463 E3.0887
G1 X105.880 Y88.801 E3.1242
G1 X105.416 Y89.170 E3.1596
G1 X104.977 Y89.573 E3.1953
G1 X104.571 Y90.002 E3.2307
G92 E0
G1 E-1.0000 F1800
; outer perimeter
G1 X122.000 Y93.930 F4800
G1 E0.0000 F1800
G92 E0
G1 X121.614 Y94.533 E0.0429 F1000
G1 X121.397 Y95.216 E0.0858
G1 X121.364 Y95.932 E0.1287
G1 X121.517 Y96.631 E0.1715
G1 X121.847 Y97.267 E0.2144
G1 X122.330 Y97.796 E0.2573
G1 X122.933 Y98.182 E0.3002
G1 X123.615 Y98.399 E0.3430
G1 X124.331 Y98.432 E0.3859
G1 X125.031 Y98.279 E0.4288
G1 X125.667 Y97.949 E0.4717
G1 X126.196 Y97.466 E0.5146
G1 X126.582 Y96.863 E0.5575
G1 X126.799 Y96.181 E0.6004
G1 X126.832 Y95.465 E0.6432
G1 X126.678 Y94.765 E0.6861
G1 X126.349 Y94.129 E0.7290
G1 X125.866 Y93.600 E0.7719
G1 X125.263 Y93.214 E0.8148
G1 X124.580 Y92.997 E0.8576
G1 X123.865 Y92.964 E0.9005
G1 X123.165 Y93.118 E0.9434
G1 X122.529 Y93.447 E0.9863
G1 X122.000 Y93.930 E1.0292
G92 E0
G1 E-1.0000 F1800
; outer perimeter
G1 X101.488 Y114.111 F4800
G1 E0.0000 F1800
G92 E0
G1 X101.488 Y119.991 E0.3520 F1000
G1 X108.513 Y119.991 E0.7726
G1 X108.513 Y114.111 E1.1246
G1 X101.488 Y114.111 E1.5452
G92 E0
G1 E-1.0000 F1800
; solid layer
G1 X108.921 Y115.517 F4800
G1 E0.0000 F1800
G92 E0
G1 X130.152 Y94.286 E1.7976 F1600
G1 X130.152 Y94.964 E1.8382
G1 X108.921 Y116.196 E3.6358
G1 X108.921 Y116.875 E3.6765
G1 X130.152 Y95.643 E5.4741
G1 X130.152 Y96.322 E5.5147
G1 X108.921 Y117.553 E7.3123
G1 X108.921 Y118.232 E7.3529
G1 X130.152 Y97.001 E9.1505
G1 X130.152 Y97.680 E9.1912
G1 X108.921 Y118.911 E10.9888
G1 X108.921 Y119.590 E11.0294
G1 X130.152 Y98.358 E12.8270
G1 X130.152 Y99.037 E12.8676
G1 X108.921 Y120.269 E14.6652
G1 X110.268 Y104.666 F4800
G92 E0
G1 X101.231 Y113.703 E0.7652 F1600
G1 X101.910 Y113.703 E0.8058
G1 X110.920 Y104.693 E1.5686
G1 X111.466 Y104.684 E1.6013
G1 X111.622 Y104.670 E1.6107
G1 X102.589 Y113.703 E2.3755
G1 X103.267 Y113.703 E2.4161
G1 X112.387 Y104.584 E3.1882
G1 X112.698 Y104.535 E3.2071
G1 X113.238 Y104.411 E3.2403
G1 X103.946 Y113.703 E4.0270
G1 X104.625 Y113.703 E4.0676
G1 X114.242 Y104.087 E4.8818
G1 X114.479 Y103.997 E4.8970
G1 X115.043 Y103.736 E4.9342
G1 X115.545 Y103.462 E4.9685
G1 X105.304 Y113.703 E5.8355
G1 X105.983 Y113.703 E5.8762
G1 X121.831 Y97.855 E7.2180
G1 X121.509 Y97.502 E7.2466
G1 X121.508 Y97.500 E7.2467
G1 X118.757 Y100.250 E7.4796
G1 X118.968 Y99.880 E7.5051
G1 X119.237 Y99.319 E7.5424
G1 X119.388 Y98.940 E7.5668
G1 X121.276 Y97.052 E7.7266
G1 X121.130 Y96.771 E7.7456
G1 X121.085 Y96.564 E7.7583
G1 X119.709 Y97.941 E7.8748
G1 X119.806 Y97.550 E7.8989
G1 X119.887 Y97.083 E7.9272
G1 X120.963 Y96.008 E8.0183
G1 X120.954 Y95.967 E8.0208
G1 X120.984 Y95.308 E8.0603
G1 X119.977 Y96.315 E8.1456
G1 X119.999 Y95.698 E8.1825
G1 X119.996 Y95.617 E8.1874
G1 X121.235 Y94.378 E8.2923
G1 X121.241 Y94.358 E8.2935
G1 X121.685 Y93.665 E8.3428
G1 X122.294 Y93.110 E8.3922
G1 X122.729 Y92.884 E8.4215
G1 X130.152 Y85.461 E9.0500
G1 X130.152 Y84.782 E9.0907
G1 X119.965 Y94.969 E9.9532
G1 X119.913 Y94.460 E9.9838
G1 X119.895 Y94.360 E9.9899
G1 X130.152 Y84.103 E10.8583
G1 X130.152 Y83.867 E10.8724
G1 X129.710 Y83.867 E10.8989
G1 X119.791 Y93.786 E11.7387
G1 X119.656 Y93.244 E11.7721
G1 X119.656 Y93.242 E11.7722
G1 X129.031 Y83.867 E12.5660
G1 X128.352 Y83.867 E12.6067
G1 X119.491 Y92.728 E13.3569
G1 X119.467 Y92.654 E13.3616
G1 X119.301 Y92.239 E13.3884
G1 X127.673 Y83.867 E14.0972
G1 X126.995 Y83.867 E14.1378
G1 X119.090 Y91.771 E14.8071
G1 X118.968 Y91.516 E14.8240
G1 X118.858 Y91.324 E14.8373
G1 X126.316 Y83.867 E15.4687
G1 X125.637 Y83.867 E15.5093
G1 X118.607 Y90.897 E16.1045
G1 X118.335 Y90.489 E16.1338
G1 X124.958 Y83.867 E16.6946
G1 X124.279 Y83.867 E16.7352
G1 X122.848 Y85.298 E16.8564
G1 X122.848 Y85.546 E16.8712
G1 X122.600 Y85.546 E16.8861
G1 X118.042 Y90.104 E17.2720
G1 X117.937 Y89.968 E17.2823
G1 X117.732 Y89.736 E17.3009
G1 X121.921 Y85.546 E17.6556
G1 X121.242 Y85.546 E17.6962
G1 X117.405 Y89.384 E18.0211
G1 X117.081 Y89.067 E18.0483
G1 X117.061 Y89.049 E18.0499
G1 X120.563 Y85.546 E18.3464
G1 X119.884 Y85.546 E18.3871
G1 X116.695 Y88.736 E18.6572
G1 X116.610 Y88.663 E18.6638
G1 X116.311 Y88.441 E18.6861
G1 X119.206 Y85.546 E18.9312
G1 X118.527 Y85.546 E18.9718
G1 X115.910 Y88.163 E19.1934
G1 X115.588 Y87.958 E19.2162
G1 X115.490 Y87.904 E19.2229
G1 X117.848 Y85.546 E19.4226
G1 X117.169 Y85.546 E19.4632
G1 X115.051 Y87.664 E19.6426
G1 X115.043 Y87.660 E19.6431
G1 X114.587 Y87.450 E19.6732
