; G-Code generated by Simplify3D(R) Version 3.0.1
; Aug 6, 2015 at 12:26:36 PM
; Settings Summary
;   processName,Process1
;   applyToModels,hollow_cube
;   profileName,Maker Farm Pegasys Lite6 1.75mm ABS (modified)
;   profileVersion,2015-07-28 14:01:23
;   baseProfile,Default
;   printMaterial,PLA
;   printQuality,Fast
;   printExtruders,
;   extruderName,Extruder 1
;   extruderToolheadNumber,0
;   extruderDiameter,0.4
;   extruderAutoWidth,0
;   extruderWidth,0.4
;   extrusionMultiplier,0.9
;   extruderUseRetract,1
;   extruderRetractionDistance,1
;   extruderExtraRestartDistance,0
;   extruderRetractionZLift,0
;   extruderRetractionSpeed,1800
;   extruderUseCoasting,0
;   extruderCoastingDistance,0.2
;   extruderUseWipe,0
;   extruderWipeDistance,5
;   primaryExtruder,0
;   layerHeight,0.3
;   topSolidLayers,3
;   bottomSolidLayers,3
;   perimeterOutlines,2
;   printPerimetersInsideOut,1
;   startPointOption,2
;   startPointOriginX,0
;   startPointOriginY,0
;   startPointOriginZ,300
;   sequentialIslands,0
;   spiralVaseMode,0
;   firstLayerHeightPercentage,90
;   firstLayerWidthPercentage,100
;   firstLayerUnderspeed,0.5
;   useRaft,0
;   raftExtruder,0
;   raftLayers,3
;   raftOffset,3
;   raftSeparationDistance,0.14
;   raftInfill,85
;   disableRaftBaseLayers,0
;   useSkirt,1
;   skirtExtruder,0
;   skirtLayers,1
;   skirtOutlines,2
;   skirtOffset,4
;   usePrimePillar,0
;   primePillarExtruder,999
;   primePillarWidth,12
;   primePillarLocation,7
;   primePillarSpeedMultiplier,1
;   useOozeShield,0
;   oozeShieldExtruder,999
;   oozeShieldOffset,2
;   oozeShieldOutlines,1
;   oozeShieldSidewallShape,1
;   oozeShieldSidewallAngle,30
;   oozeShieldSpeedMultiplier,1
;   infillExtruder,0
;   internalInfillPattern,Rectilinear
;   externalInfillPattern,Rectilinear
;   infillPercentage,0
;   outlineOverlapPercentage,15
;   infillExtrusionWidthPercentage,100
;   minInfillLength,5
;   infillLayerInterval,1
;   infillAngles,45,-45
;   overlapInfillAngles,0
;   generateSupport,0
;   supportExtruder,0
;   supportInfillPercentage,25
;   supportExtraInflation,0
;   denseSupportLayers,0
;   denseSupportInfillPercentage,70
;   supportLayerInterval,1
;   supportHorizontalPartOffset,0.3
;   supportUpperSeparationLayers,1
;   supportLowerSeparationLayers,1
;   supportType,0
;   supportGridSpacing,4
;   maxOverhangAngle,45
;   supportAngles,0
;   temperatureName,Extruder 1 Temperature,Heated Bed
;   temperatureNumber,0,0
;   temperatureSetpointCount,1,1
;   temperatureSetpointLayers,1,1
;   temperatureSetpointTemperatures,190,60
;   temperatureStabilizeAtStartup,1,1
;   temperatureHeatedBed,0,1
;   temperatureRelayBetweenLayers,0,0
;   temperatureRelayBetweenLoops,0,0
;   fanLayers,1,2
;   fanSpeeds,0,100
;   blipFanToFullPower,0
;   adjustSpeedForCooling,1
;   minSpeedLayerTime,15
;   minCoolingSpeedSlowdown,20
;   increaseFanForCooling,0
;   minFanLayerTime,45
;   maxCoolingFanSpeed,100
;   increaseFanForBridging,0
;   bridgingFanSpeed,100
;   use5D,1
;   relativeEdistances,0
;   allowEaxisZeroing,1
;   independentExtruderAxes,0
;   includeM10123,0
;   stickySupport,1
;   applyToolheadOffsets,0
;   gcodeXoffset,0
;   gcodeYoffset,0
;   gcodeZoffset,0
;   overrideMachineDefinition,1
;   machineTypeOverride,0
;   strokeXoverride,200
;   strokeYoverride,200
;   strokeZoverride,180
;   originOffsetXoverride,0
;   originOffsetYoverride,0
;   originOffsetZoverride,0
;   homeXdirOverride,-1
;   homeYdirOverride,-1
;   homeZdirOverride,-1
;   flipXoverride,1
;   flipYoverride,-1
;   flipZoverride,1
;   toolheadOffsets,0,0|0,0|0,0|0,0|0,0|0,0
;   overrideFirmwareConfiguration,1
;   firmwareTypeOverride,RepRap (Marlin/Repetier/Sprinter)
;   GPXconfigOverride,r2
;   baudRateOverride,250000
;   overridePrinterModels,0
;   printerModelsOverride
;   startingGcode,G28 ; home all axes
;   layerChangeGcode,
;   retractionGcode,
;   toolChangeGcode,
;   endingGcode,M104 S0 ; turn off extruder,M140 S0 ; turn off bed,G28 X0  ; home X axis,G28 Y0  ; home Y axis,M84 ; disable motors
;   createX3G,0
;   celebration,0
;   celebrationSong,Random Song
;   createMB5G,0
;   postProcessing,
;   defaultSpeed,3600
;   outlineUnderspeed,0.5
;   solidInfillUnderspeed,0.8
;   supportUnderspeed,0.8
;   rapidXYspeed,4800
;   rapidZspeed,1000
;   minBridgingArea,50
;   bridgingExtraInflation,0
;   bridgingExtrusionMultiplier,1
;   bridgingSpeedMultiplier,1
;   filamentDiameter,1.75
;   filamentPricePerKg,25
;   filamentDensity,1.25
;   useMinPrintHeight,0
;   minPrintHeight,0
;   useMaxPrintHeight,0
;   maxPrintHeight,0
;   useDiaphragm,0
;   diaphragmLayerInterval,20
;   robustSlicing,1
;   mergeAllIntoSolid,0
;   onlyRetractWhenCrossingOutline,1
;   retractBetweenLayers,1
;   useRetractionMinTravel,0
;   retractionMinTravel,3
;   retractWhileWiping,0
;   onlyWipeOutlines,1
;   avoidCrossingOutline,0
;   maxMovementDetourFactor,3
;   toolChangeRetractionDistance,12
;   toolChangeExtraRestartDistance,-0.5
;   toolChangeRetractionSpeed,600
;   allowThinWallGapFill,1
;   thinWallAllowedOverlapPercentage,10
;   horizontalSizeCompensation,-0.2
G90
M82
M106 S0
M140 S60
M190 S60
M104 S190 T0
M109 S190 T0
G28 ; home all axes
G92 E0
G1 E-1.0000 F1800
G1 Z0.270 F1000
; layer 1, Z = 0.27
T0
; tool H0.300 W0.400
; skirt
G1 X83.691 Y86.203 F4800
G1 E0.0000 F540
G92 E0
G1 X86.203 Y83.691 E0.1595 F1800
G1 X86.424 Y83.600 E0.1702
G1 X113.576 Y83.600 E1.3894
G1 X113.797 Y83.691 E1.4001
G1 X116.309 Y86.203 E1.5596
G1 X116.400 Y86.424 E1.5703
G1 X116.400 Y113.576 E2.7895
G1 X116.309 Y113.797 E2.8002
G1 X113.797 Y116.309 E2.9597
G1 X113.576 Y116.400 E2.9705
G1 X86.424 Y116.400 E4.1896
G1 X86.203 Y116.309 E4.2004
G1 X83.691 Y113.797 E4.3599
G1 X83.600 Y113.576 E4.3706
G1 X83.600 Y86.424 E5.5898
G1 X83.691 Y86.203 E5.6005
G1 X84.030 Y86.430 F4800
G92 E0
G1 X86.430 Y84.030 E0.1524 F1800
G1 X86.503 Y84.000 E0.1559
G1 X113.497 Y84.000 E1.3680
G1 X113.570 Y84.030 E1.3715
G1 X115.970 Y86.430 E1.5239
G1 X116.000 Y86.503 E1.5275
G1 X116.000 Y113.497 E2.7395
G1 X115.970 Y113.570 E2.7431
G1 X113.570 Y115.970 E2.8954
G1 X113.497 Y116.000 E2.8990
G1 X86.503 Y116.000 E4.1110
G1 X86.430 Y115.970 E4.1146
G1 X84.030 Y113.570 E4.2670
G1 X84.000 Y113.497 E4.2705
G1 X84.000 Y86.503 E5.4826
G1 X84.030 Y86.430 E5.4861
G92 E0
G1 E-1.0000 F1800
; inner perimeter
G1 X88.800 Y88.800 F4800
G1 E0.0000 F1800
G92 E0
G1 X111.200 Y88.800 E1.0058 F1350
G1 X111.200 Y111.200 E2.0116
G1 X88.800 Y111.200 E3.0174
G1 X88.800 Y88.800 E4.0231
; outer perimeter
G1 X88.400 Y88.400 F4800
G92 E0
G1 X111.600 Y88.400 E1.0417 F900
G1 X111.600 Y111.600 E2.0834
G1 X88.400 Y111.600 E3.1251
G1 X88.400 Y88.400 E4.1668
; solid layer
G1 X89.140 Y89.364 F4800
G92 E0
G1 X89.364 Y89.140 E0.0142 F1440
G1 X89.930 Y89.140 E0.0396
G1 X89.140 Y89.930 E0.0898
G1 X89.140 Y90.495 E0.1152
G1 X90.495 Y89.140 E0.2012
G1 X91.061 Y89.140 E0.2266
G1 X89.140 Y91.061 E0.3486
G1 X89.140 Y91.627 E0.3740
G1 X91.627 Y89.140 E0.5319
G1 X92.192 Y89.140 E0.5573
G1 X89.140 Y92.192 E0.7512
G1 X89.140 Y92.758 E0.7766
G1 X92.758 Y89.140 E1.0063
G1 X93.324 Y89.140 E1.0317
G1 X89.140 Y93.324 E1.2974
G1 X89.140 Y93.889 E1.3228
G1 X93.889 Y89.140 E1.6244
G1 X94.455 Y89.140 E1.6498
G1 X89.140 Y94.455 E1.9873
G1 X89.140 Y95.021 E2.0127
G1 X95.021 Y89.140 E2.3861
G1 X95.587 Y89.140 E2.4115
G1 X89.140 Y95.587 E2.8209
G1 X89.140 Y96.152 E2.8463
G1 X96.152 Y89.140 E3.2915
G1 X96.718 Y89.140 E3.3169
G1 X89.140 Y96.718 E3.7981
G1 X89.140 Y97.284 E3.8235
G1 X97.284 Y89.140 E4.3407
G1 X97.849 Y89.140 E4.3661
G1 X89.140 Y97.849 E4.9191
G1 X89.140 Y98.415 E4.9445
G1 X98.415 Y89.140 E5.5334
G1 X98.981 Y89.140 E5.5588
G1 X89.140 Y98.981 E6.1837
G1 X89.140 Y99.546 E6.2091
G1 X99.546 Y89.140 E6.8699
G1 X100.112 Y89.140 E6.8953
G1 X89.140 Y100.112 E7.5920
G1 X89.140 Y100.678 E7.6174
G1 X100.678 Y89.140 E8.3501
G1 X101.243 Y89.140 E8.3755
G1 X89.140 Y101.243 E9.1441
G1 X89.140 Y101.809 E9.1695
G1 X101.809 Y89.140 E9.9739
G1 X102.375 Y89.140 E9.9993
G1 X89.140 Y102.375 E10.8397
G1 X89.140 Y102.940 E10.8651
G1 X102.940 Y89.140 E11.7415
G1 X103.506 Y89.140 E11.7669
G1 X89.140 Y103.506 E12.6791
G1 X89.140 Y104.072 E12.7045
G1 X104.072 Y89.140 E13.6527
G1 X104.637 Y89.140 E13.6781
G1 X89.140 Y104.637 E14.6622
G1 X89.140 Y105.203 E14.6876
G1 X105.203 Y89.140 E15.7076
G1 X105.769 Y89.140 E15.7330
G1 X89.140 Y105.769 E16.7889
G1 X89.140 Y106.335 E16.8143
G1 X106.335 Y89.140 E17.9062
G1 X106.900 Y89.140 E17.9316
G1 X89.140 Y106.900 E19.0593
G1 X89.140 Y107.466 E19.0847
G1 X107.466 Y89.140 E20.2484
G1 X108.032 Y89.140 E20.2738
G1 X89.140 Y108.032 E21.4734
G1 X89.140 Y108.597 E21.4988
G1 X108.597 Y89.140 E22.7344
G1 X109.163 Y89.140 E22.7598
G1 X89.140 Y109.163 E24.0312
G1 X89.140 Y109.729 E24.0566
G1 X109.729 Y89.140 E25.3640
G1 X110.294 Y89.140 E25.3894
G1 X89.140 Y110.294 E26.7327
G1 X89.140 Y110.860 E26.7581
G1 X89.140 Y110.860 E26.7581
G1 X110.860 Y89.140 E28.1373
G1 X110.860 Y89.706 E28.1627
G1 X89.706 Y110.860 E29.5060
G1 X90.271 Y110.860 E29.5314
G1 X110.860 Y90.271 E30.8388
G1 X110.860 Y90.837 E30.8642
G1 X90.837 Y110.860 E32.1356
G1 X91.403 Y110.860 E32.1610
G1 X110.860 Y91.403 E33.3966
G1 X110.860 Y91.968 E33.4220
G1 X91.968 Y110.860 E34.6216
G1 X92.534 Y110.860 E34.6470
G1 X110.860 Y92.534 E35.8107
G1 X110.860 Y93.100 E35.8361
G1 X93.100 Y110.860 E36.9638
G1 X93.666 Y110.860 E36.9892
G1 X110.860 Y93.666 E38.0811
G1 X110.860 Y94.231 E38.1065
G1 X94.231 Y110.860 E39.1624
G1 X94.797 Y110.860 E39.1878
G1 X110.860 Y94.797 E40.2078
G1 X110.860 Y95.363 E40.2332
G1 X95.363 Y110.860 E41.2173
G1 X95.928 Y110.860 E41.2427
G1 X110.860 Y95.928 E42.1909
G1 X110.860 Y96.494 E42.2163
G1 X96.494 Y110.860 E43.1285
G1 X97.060 Y110.860 E43.1539
G1 X110.860 Y97.060 E44.0302
G1 X110.860 Y97.625 E44.0556
G1 X97.625 Y110.860 E44.8960
G1 X98.191 Y110.860 E44.9214
G1 X110.860 Y98.191 E45.7259
G1 X110.860 Y98.757 E45.7513
G1 X98.757 Y110.860 E46.5199
G1 X99.322 Y110.860 E46.5453
G1 X110.860 Y99.322 E47.2779
G1 X110.860 Y99.888 E47.3033
G1 X99.888 Y110.860 E48.0000
G1 X100.454 Y110.860 E48.0254
G1 X110.860 Y100.454 E48.6862
G1 X110.860 Y101.019 E48.7116
G1 X101.019 Y110.860 E49.3365
G1 X101.585 Y110.860 E49.3619
G1 X110.860 Y101.585 E49.9508
G1 X110.860 Y102.151 E49.9762
G1 X102.151 Y110.860 E50.5293
G1 X102.716 Y110.860 E50.5547
G1 X110.860 Y102.716 E51.0718
G1 X110.860 Y103.282 E51.0972
G1 X103.282 Y110.860 E51.5784
G1 X103.848 Y110.860 E51.6038
G1 X110.860 Y103.848 E52.0491
G1 X110.860 Y104.414 E52.0745
G1 X104.414 Y110.860 E52.4838
G1 X104.979 Y110.860 E52.5092
G1 X110.860 Y104.979 E52.8826
G1 X110.860 Y105.545 E52.9080
G1 X105.545 Y110.860 E53.2455
G1 X106.111 Y110.860 E53.2709
G1 X110.860 Y106.111 E53.5725
G1 X110.860 Y106.676 E53.5979
G1 X106.676 Y110.860 E53.8636
G1 X107.242 Y110.860 E53.8890
G1 X110.860 Y107.242 E54.1187
G1 X110.860 Y107.808 E54.1441
G1 X107.808 Y110.860 E54.3380
G1 X108.373 Y110.860 E54.3634
G1 X110.860 Y108.373 E54.5213
G1 X110.860 Y108.939 E54.5467
G1 X108.939 Y110.860 E54.6686
G1 X109.505 Y110.860 E54.6940
G1 X110.860 Y109.505 E54.7801
G1 X110.860 Y110.070 E54.8055
G1 X110.070 Y110.860 E54.8556
G1 X110.636 Y110.860 E54.8810
G1 X110.860 Y110.636 E54.8953
G92 E0
G1 E-1.0000 F1800
; layer 2, Z = 0.57
M106 S255
; inner perimeter
G1 X111.200 Y111.200 F4800
G1 Z0.570 F1000
G1 E0.0000 F1800
G92 E0
G1 X88.800 Y111.200 E1.0058 F2700
G1 X88.800 Y88.800 E2.0116
G1 X111.200 Y88.800 E3.0174
G1 X111.200 Y111.200 E4.0231
; outer perimeter
G1 X111.600 Y111.600 F4800
G92 E0
G1 X88.400 Y111.600 E1.0417 F1800
G1 X88.400 Y88.400 E2.0834
G1 X111.600 Y88.400 E3.1251
G1 X111.600 Y111.600 E4.1668
; solid layer
G1 X89.364 Y110.860 F4800
G92 E0
G1 X89.140 Y110.636 E0.0142 F2880
G1 X89.140 Y110.070 E0.0396
G1 X89.930 Y110.860 E0.0898
G1 X90.495 Y110.860 E0.1152
G1 X89.140 Y109.505 E0.2012
G1 X89.140 Y108.939 E0.2266
G1 X91.061 Y110.860 E0.3486
G1 X91.627 Y110.860 E0.3740
G1 X89.140 Y108.373 E0.5319
G1 X89.140 Y107.808 E0.5573
G1 X92.192 Y110.860 E0.7511
G1 X92.758 Y110.860 E0.7765
G1 X89.140 Y107.242 E1.0063
G1 X89.140 Y106.676 E1.0317
G1 X93.324 Y110.860 E1.2974
G1 X93.889 Y110.860 E1.3228
G1 X89.140 Y106.111 E1.6243
G1 X89.140 Y105.545 E1.6497
G1 X94.455 Y110.860 E1.9873
G1 X95.021 Y110.860 E2.0127
G1 X89.140 Y104.979 E2.3861
G1 X89.140 Y104.413 E2.4115
G1 X95.587 Y110.860 E2.8208
G1 X96.152 Y110.860 E2.8462
G1 X89.140 Y103.848 E3.2915
G1 X89.140 Y103.282 E3.3169
G1 X96.718 Y110.860 E3.7981
G1 X97.284 Y110.860 E3.8235
G1 X89.140 Y102.716 E4.3406
G1 X89.140 Y102.151 E4.3660
G1 X97.849 Y110.860 E4.9191
G1 X98.415 Y110.860 E4.9445
G1 X89.140 Y101.585 E5.5334
G1 X89.140 Y101.019 E5.5588
G1 X98.981 Y110.860 E6.1837
G1 X99.546 Y110.860 E6.2091
G1 X89.140 Y100.454 E6.8699
G1 X89.140 Y99.888 E6.8953
G1 X100.112 Y110.860 E7.5920
G1 X100.678 Y110.860 E7.6174
G1 X89.140 Y99.322 E8.3500
G1 X89.140 Y98.757 E8.3754
G1 X101.243 Y110.860 E9.1440
G1 X101.809 Y110.860 E9.1694
G1 X89.140 Y98.191 E9.9739
G1 X89.140 Y97.625 E9.9993
G1 X102.375 Y110.860 E10.8397
G1 X102.940 Y110.860 E10.8651
G1 X89.140 Y97.060 E11.7414
G1 X89.140 Y96.494 E11.7668
G1 X103.506 Y110.860 E12.6791
G1 X104.072 Y110.860 E12.7045
G1 X89.140 Y95.928 E13.6526
G1 X89.140 Y95.363 E13.6780
G1 X104.637 Y110.860 E14.6621
G1 X105.203 Y110.860 E14.6875
G1 X89.140 Y94.797 E15.7075
G1 X89.140 Y94.231 E15.7329
G1 X105.769 Y110.860 E16.7889
G1 X106.335 Y110.860 E16.8143
G1 X89.140 Y93.665 E17.9061
G1 X89.140 Y93.100 E17.9315
G1 X106.900 Y110.860 E19.0593
G1 X107.466 Y110.860 E19.0847
G1 X89.140 Y92.534 E20.2484
G1 X89.140 Y91.968 E20.2738
G1 X108.032 Y110.860 E21.4734
G1 X108.597 Y110.860 E21.4988
G1 X89.140 Y91.403 E22.7343
G1 X89.140 Y90.837 E22.7597
G1 X109.163 Y110.860 E24.0312
G1 X109.729 Y110.860 E24.0566
G1 X89.140 Y90.271 E25.3639
G1 X89.140 Y89.706 E25.3893
G1 X110.294 Y110.860 E26.7326
G1 X110.860 Y110.860 E26.7580
G1 X110.860 Y110.860 E26.7580
G1 X89.140 Y89.140 E28.1373
G1 X89.706 Y89.140 E28.1627
G1 X110.860 Y110.294 E29.5060
G1 X110.860 Y109.729 E29.5314
G1 X90.271 Y89.140 E30.8387
G1 X90.837 Y89.140 E30.8641
G1 X110.860 Y109.163 E32.1356
G1 X110.860 Y108.597 E32.1610
G1 X91.403 Y89.140 E33.3965
G1 X91.968 Y89.140 E33.4219
G1 X110.860 Y108.032 E34.6215
G1 X110.860 Y107.466 E34.6469
G1 X92.534 Y89.140 E35.8106
G1 X93.100 Y89.140 E35.8360
G1 X110.860 Y106.900 E36.9638
G1 X110.860 Y106.335 E36.9892
G1 X93.665 Y89.140 E38.0810
G1 X94.231 Y89.140 E38.1064
G1 X110.860 Y105.769 E39.1624
G1 X110.860 Y105.203 E39.1878
G1 X94.797 Y89.140 E40.2078
G1 X95.363 Y89.140 E40.2332
G1 X110.860 Y104.637 E41.2173
G1 X110.860 Y104.072 E41.2427
G1 X95.928 Y89.140 E42.1908
G1 X96.494 Y89.140 E42.2162
G1 X110.860 Y103.506 E43.1285
G1 X110.860 Y102.940 E43.1539
G1 X97.060 Y89.140 E44.0302
G1 X97.625 Y89.140 E44.0556
G1 X110.860 Y102.375 E44.8960
G1 X110.860 Y101.809 E44.9214
G1 X98.191 Y89.140 E45.7259
G1 X98.757 Y89.140 E45.7513
G1 X110.860 Y101.243 E46.5198
G1 X110.860 Y100.678 E46.5452
G1 X99.322 Y89.140 E47.2779
G1 X99.888 Y89.140 E47.3033
G1 X110.860 Y100.112 E48.0000
G1 X110.860 Y99.546 E48.0254
G1 X100.454 Y89.140 E48.6862
G1 X101.019 Y89.140 E48.7116
G1 X110.860 Y98.981 E49.3365
G1 X110.860 Y98.415 E49.3619
G1 X101.585 Y89.140 E49.9508
G1 X102.151 Y89.140 E49.9762
G1 X110.860 Y97.849 E50.5293
G1 X110.860 Y97.284 E50.5547
G1 X102.716 Y89.140 E51.0718
G1 X103.282 Y89.140 E51.0972
G1 X110.860 Y96.718 E51.5784
G1 X110.860 Y96.152 E51.6038
G1 X103.848 Y89.140 E52.0490
G1 X104.414 Y89.140 E52.0744
G1 X110.860 Y95.586 E52.4838
G1 X110.860 Y95.021 E52.5092
G1 X104.979 Y89.140 E52.8826
G1 X105.545 Y89.140 E52.9080
G1 X110.860 Y94.455 E53.2455
G1 X110.860 Y93.889 E53.2709
G1 X106.111 Y89.140 E53.5725
G1 X106.676 Y89.140 E53.5979
G1 X110.860 Y93.324 E53.8636
G1 X110.860 Y92.758 E53.8890
G1 X107.242 Y89.140 E54.1187
G1 X107.808 Y89.140 E54.1441
G1 X110.860 Y92.192 E54.3379
G1 X110.860 Y91.627 E54.3633
G1 X108.373 Y89.140 E54.5213
G1 X108.939 Y89.140 E54.5467
G1 X110.860 Y91.061 E54.6686
G1 X110.860 Y90.495 E54.6940
G1 X109.505 Y89.140 E54.7801
G1 X110.070 Y89.140 E54.8055
G1 X110.860 Y89.930 E54.8556
G1 X110.860 Y89.364 E54.8810
