; G-Code generated by Simplify3D(R) Version 3.0.1
; Aug 6, 2015 at 12:25:56 PM
; Settings Summary
;   processName,Process1
;   applyToModels,hollow_cube
;   profileName,Maker Farm Pegasys Lite6 1.75mm ABS (modified)
;   profileVersion,2015-07-28 14:01:23
;   baseProfile,Default
;   printMaterial,ABS
;   printQuality,Fast
;   printExtruders,
;   extruderName,Extruder 1
;   extruderToolheadNumber,0
;   extruderDiameter,0.4
;   extruderAutoWidth,0
;   extruderWidth,0.4
;   extrusionMultiplier,1
;   extruderUseRetract,1
;   extruderRetractionDistance,1
;   extruderExtraRestartDistance,0
;   extruderRetractionZLift,0
;   extruderRetractionSpeed,1800
;   extruderUseCoasting,0
;   extruderCoastingDistance,0.2
;   extruderUseWipe,0
;   extruderWipeDistance,5
;   primaryExtruder,0
;   layerHeight,0.3
;   topSolidLayers,3
;   bottomSolidLayers,3
;   perimeterOutlines,2
;   printPerimetersInsideOut,1
;   startPointOption,2
;   startPointOriginX,0
;   startPointOriginY,0
;   startPointOriginZ,300
;   sequentialIslands,0
;   spiralVaseMode,0
;   firstLayerHeightPercentage,90
;   firstLayerWidthPercentage,100
;   firstLayerUnderspeed,0.5
;   useRaft,0
;   raftExtruder,0
;   raftLayers,3
;   raftOffset,3
;   raftSeparationDistance,0.14
;   raftInfill,85
;   disableRaftBaseLayers,0
;   useSkirt,1
;   skirtExtruder,0
;   skirtLayers,1
;   skirtOutlines,2
;   skirtOffset,4
;   usePrimePillar,0
;   primePillarExtruder,999
;   primePillarWidth,12
;   primePillarLocation,7
;   primePillarSpeedMultiplier,1
;   useOozeShield,0
;   oozeShieldExtruder,999
;   oozeShieldOffset,2
;   oozeShieldOutlines,1
;   oozeShieldSidewallShape,1
;   oozeShieldSidewallAngle,30
;   oozeShieldSpeedMultiplier,1
;   infillExtruder,0
;   internalInfillPattern,Rectilinear
;   externalInfillPattern,Rectilinear
;   infillPercentage,50
;   outlineOverlapPercentage,15
;   infillExtrusionWidthPercentage,100
;   minInfillLength,5
;   infillLayerInterval,1
;   infillAngles,45,-45
;   overlapInfillAngles,0
;   generateSupport,0
;   supportExtruder,0
;   supportInfillPercentage,25
;   supportExtraInflation,0
;   denseSupportLayers,0
;   denseSupportInfillPercentage,70
;   supportLayerInterval,1
;   supportHorizontalPartOffset,0.3
;   supportUpperSeparationLayers,1
;   supportLowerSeparationLayers,1
;   supportType,0
;   supportGridSpacing,4
;   maxOverhangAngle,45
;   supportAngles,0
;   temperatureName,Extruder 1 Temperature,Heated Bed
;   temperatureNumber,0,0
;   temperatureSetpointCount,1,1
;   temperatureSetpointLayers,1,1
;   temperatureSetpointTemperatures,240,110
;   temperatureStabilizeAtStartup,1,1
;   temperatureHeatedBed,0,1
;   temperatureRelayBetweenLayers,0,0
;   temperatureRelayBetweenLoops,0,0
;   fanLayers,1
;   fanSpeeds,0
;   blipFanToFullPower,0
;   adjustSpeedForCooling,1
;   minSpeedLayerTime,15
;   minCoolingSpeedSlowdown,20
;   increaseFanForCooling,0
;   minFanLayerTime,45
;   maxCoolingFanSpeed,100
;   increaseFanForBridging,0
;   bridgingFanSpeed,100
;   use5D,1
;   relativeEdistances,0
;   allowEaxisZeroing,1
;   independentExtruderAxes,0
;   includeM10123,0
;   stickySupport,1
;   applyToolheadOffsets,0
;   gcodeXoffset,0
;   gcodeYoffset,0
;   gcodeZoffset,0
;   overrideMachineDefinition,1
;   machineTypeOverride,0
;   strokeXoverride,200
;   strokeYoverride,200
;   strokeZoverride,180
;   originOffsetXoverride,0
;   originOffsetYoverride,0
;   originOffsetZoverride,0
;   homeXdirOverride,-1
;   homeYdirOverride,-1
;   homeZdirOverride,-1
;   flipXoverride,1
;   flipYoverride,-1
;   flipZoverride,1
;   toolheadOffsets,0,0|0,0|0,0|0,0|0,0|0,0
;   overrideFirmwareConfiguration,1
;   firmwareTypeOverride,RepRap (Marlin/Repetier/Sprinter)
;   GPXconfigOverride,r2
;   baudRateOverride,250000
;   overridePrinterModels,0
;   printerModelsOverride
;   startingGcode,G28 ; home all axes
;   layerChangeGcode,
;   retractionGcode,
;   toolChangeGcode,
;   endingGcode,M104 S0 ; turn off extruder,M140 S0 ; turn off bed,G28 X0  ; home X axis,G28 Y0  ; home Y axis,M84 ; disable motors
;   createX3G,0
;   celebration,0
;   celebrationSong,Random Song
;   createMB5G,0
;   postProcessing,
;   defaultSpeed,3600
;   outlineUnderspeed,0.5
;   solidInfillUnderspeed,0.8
;   supportUnderspeed,0.8
;   rapidXYspeed,4800
;   rapidZspeed,1000
;   minBridgingArea,50
;   bridgingExtraInflation,0
;   bridgingExtrusionMultiplier,1
;   bridgingSpeedMultiplier,1
;   filamentDiameter,1.75
;   filamentPricePerKg,25
;   filamentDensity,1.25
;   useMinPrintHeight,0
;   minPrintHeight,0
;   useMaxPrintHeight,0
;   maxPrintHeight,0
;   useDiaphragm,0
;   diaphragmLayerInterval,20
;   robustSlicing,1
;   mergeAllIntoSolid,0
;   onlyRetractWhenCrossingOutline,1
;   retractBetweenLayers,1
;   useRetractionMinTravel,0
;   retractionMinTravel,3
;   retractWhileWiping,0
;   onlyWipeOutlines,1
;   avoidCrossingOutline,0
;   maxMovementDetourFactor,3
;   toolChangeRetractionDistance,12
;   toolChangeExtraRestartDistance,-0.5
;   toolChangeRetractionSpeed,600
;   allowThinWallGapFill,1
;   thinWallAllowedOverlapPercentage,10
;   horizontalSizeCompensation,-0.2
G90
M82
M106 S0
M140 S110
M190 S110
M104 S240 T0
M109 S240 T0
G28 ; home all axes
G92 E0
G1 E-1.0000 F1800
G1 Z0.270 F1000
; layer 1, Z = 0.27
T0
; tool H0.300 W0.400
; skirt
G1 X83.691 Y86.203 F4800
G1 E0.0000 F540
G92 E0
G1 X86.203 Y83.691 E0.1772 F1800
G1 X86.424 Y83.600 E0.1891
G1 X113.576 Y83.600 E1.5438
G1 X113.797 Y83.691 E1.5557
G1 X116.309 Y86.203 E1.7329
G1 X116.400 Y86.424 E1.7448
G1 X116.400 Y113.576 E3.0995
G1 X116.309 Y113.797 E3.1114
G1 X113.797 Y116.309 E3.2886
G1 X113.576 Y116.400 E3.3005
G1 X86.424 Y116.400 E4.6551
G1 X86.203 Y116.309 E4.6671
G1 X83.691 Y113.797 E4.8443
G1 X83.600 Y113.576 E4.8562
G1 X83.600 Y86.424 E6.2108
G1 X83.691 Y86.203 E6.2227
G1 X84.030 Y86.430 F4800
G92 E0
G1 X86.430 Y84.030 E0.1693 F1800
G1 X86.503 Y84.000 E0.1733
G1 X113.497 Y84.000 E1.5200
G1 X113.570 Y84.030 E1.5239
G1 X115.970 Y86.430 E1.6932
G1 X116.000 Y86.503 E1.6972
G1 X116.000 Y113.497 E3.0439
G1 X115.970 Y113.570 E3.0479
G1 X113.570 Y115.970 E3.2172
G1 X113.497 Y116.000 E3.2211
G1 X86.503 Y116.000 E4.5678
G1 X86.430 Y115.970 E4.5718
G1 X84.030 Y113.570 E4.7411
G1 X84.000 Y113.497 E4.7451
G1 X84.000 Y86.503 E6.0917
G1 X84.030 Y86.430 E6.0957
G92 E0
G1 E-1.0000 F1800
; inner perimeter
G1 X88.800 Y88.800 F4800
G1 E0.0000 F1800
G92 E0
G1 X111.200 Y88.800 E1.1175 F1350
G1 X111.200 Y111.200 E2.2351
G1 X88.800 Y111.200 E3.3526
G1 X88.800 Y88.800 E4.4702
; outer perimeter
G1 X88.400 Y88.400 F4800
G92 E0
G1 X111.600 Y88.400 E1.1575 F900
G1 X111.600 Y111.600 E2.3149
G1 X88.400 Y111.600 E3.4724
G1 X88.400 Y88.400 E4.6298
; solid layer
G1 X89.140 Y89.364 F4800
G92 E0
G1 X89.364 Y89.140 E0.0158 F1440
G1 X89.930 Y89.140 E0.0440
G1 X89.140 Y89.930 E0.0997
G1 X89.140 Y90.495 E0.1280
G1 X90.495 Y89.140 E0.2236
G1 X91.061 Y89.140 E0.2518
G1 X89.140 Y91.061 E0.3874
G1 X89.140 Y91.627 E0.4156
G1 X91.627 Y89.140 E0.5910
G1 X92.192 Y89.140 E0.6193
G1 X89.140 Y92.192 E0.8346
G1 X89.140 Y92.758 E0.8628
G1 X92.758 Y89.140 E1.1181
G1 X93.324 Y89.140 E1.1463
G1 X89.140 Y93.324 E1.4415
G1 X89.140 Y93.889 E1.4697
G1 X93.889 Y89.140 E1.8048
G1 X94.455 Y89.140 E1.8331
G1 X89.140 Y94.455 E2.2081
G1 X89.140 Y95.021 E2.2363
G1 X95.021 Y89.140 E2.6512
G1 X95.587 Y89.140 E2.6795
G1 X89.140 Y95.587 E3.1343
G1 X89.140 Y96.152 E3.1625
G1 X96.152 Y89.140 E3.6573
G1 X96.718 Y89.140 E3.6855
G1 X89.140 Y96.718 E4.2201
G1 X89.140 Y97.284 E4.2484
G1 X97.284 Y89.140 E4.8229
G1 X97.849 Y89.140 E4.8512
G1 X89.140 Y97.849 E5.4657
G1 X89.140 Y98.415 E5.4939
G1 X98.415 Y89.140 E6.1483
G1 X98.981 Y89.140 E6.1765
G1 X89.140 Y98.981 E6.8708
G1 X89.140 Y99.546 E6.8990
G1 X99.546 Y89.140 E7.6333
G1 X100.112 Y89.140 E7.6615
G1 X89.140 Y100.112 E8.4356
G1 X89.140 Y100.678 E8.4638
G1 X100.678 Y89.140 E9.2779
G1 X101.243 Y89.140 E9.3061
G1 X89.140 Y101.243 E10.1601
G1 X89.140 Y101.809 E10.1883
G1 X101.809 Y89.140 E11.0822
G1 X102.375 Y89.140 E11.1104
G1 X89.140 Y102.375 E12.0442
G1 X89.140 Y102.940 E12.0724
G1 X102.940 Y89.140 E13.0461
G1 X103.506 Y89.140 E13.0743
G1 X89.140 Y103.506 E14.0879
G1 X89.140 Y104.072 E14.1161
G1 X104.072 Y89.140 E15.1696
G1 X104.637 Y89.140 E15.1979
G1 X89.140 Y104.637 E16.2913
G1 X89.140 Y105.203 E16.3195
G1 X105.203 Y89.140 E17.4529
G1 X105.769 Y89.140 E17.4811
G1 X89.140 Y105.769 E18.6543
G1 X89.140 Y106.335 E18.6826
G1 X106.335 Y89.140 E19.8957
G1 X106.900 Y89.140 E19.9240
G1 X89.140 Y106.900 E21.1770
G1 X89.140 Y107.466 E21.2053
G1 X107.466 Y89.140 E22.4983
G1 X108.032 Y89.140 E22.5265
G1 X89.140 Y108.032 E23.8594
G1 X89.140 Y108.597 E23.8876
G1 X108.597 Y89.140 E25.2604
G1 X109.163 Y89.140 E25.2886
G1 X89.140 Y109.163 E26.7014
G1 X89.140 Y109.729 E26.7296
G1 X109.729 Y89.140 E28.1822
G1 X110.294 Y89.140 E28.2105
G1 X89.140 Y110.294 E29.7030
G1 X89.140 Y110.860 E29.7312
G1 X89.140 Y110.860 E29.7312
G1 X110.860 Y89.140 E31.2637
G1 X110.860 Y89.706 E31.2919
G1 X89.706 Y110.860 E32.7845
G1 X90.271 Y110.860 E32.8127
G1 X110.860 Y90.271 E34.2653
G1 X110.860 Y90.837 E34.2935
G1 X90.837 Y110.860 E35.7063
G1 X91.403 Y110.860 E35.7345
G1 X110.860 Y91.403 E37.1073
G1 X110.860 Y91.968 E37.1355
G1 X91.968 Y110.860 E38.4684
G1 X92.534 Y110.860 E38.4967
G1 X110.860 Y92.534 E39.7896
G1 X110.860 Y93.100 E39.8179
G1 X93.100 Y110.860 E41.0709
G1 X93.666 Y110.860 E41.0992
G1 X110.860 Y93.666 E42.3123
G1 X110.860 Y94.231 E42.3405
G1 X94.231 Y110.860 E43.5138
G1 X94.797 Y110.860 E43.5420
G1 X110.860 Y94.797 E44.6754
G1 X110.860 Y95.363 E44.7036
G1 X95.363 Y110.860 E45.7970
G1 X95.928 Y110.860 E45.8252
G1 X110.860 Y95.928 E46.8787
G1 X110.860 Y96.494 E46.9070
G1 X96.494 Y110.860 E47.9206
G1 X97.060 Y110.860 E47.9488
G1 X110.860 Y97.060 E48.9225
G1 X110.860 Y97.625 E48.9507
G1 X97.625 Y110.860 E49.8845
G1 X98.191 Y110.860 E49.9127
G1 X110.860 Y98.191 E50.8066
G1 X110.860 Y98.757 E50.8348
G1 X98.757 Y110.860 E51.6887
G1 X99.322 Y110.860 E51.7170
G1 X110.860 Y99.322 E52.5310
G1 X110.860 Y99.888 E52.5592
G1 X99.888 Y110.860 E53.3334
G1 X100.454 Y110.860 E53.3616
G1 X110.860 Y100.454 E54.0958
G1 X110.860 Y101.019 E54.1240
G1 X101.019 Y110.860 E54.8183
G1 X101.585 Y110.860 E54.8466
G1 X110.860 Y101.585 E55.5009
G1 X110.860 Y102.151 E55.5292
G1 X102.151 Y110.860 E56.1436
G1 X102.716 Y110.860 E56.1719
G1 X110.860 Y102.716 E56.7464
G1 X110.860 Y103.282 E56.7747
G1 X103.282 Y110.860 E57.3093
G1 X103.848 Y110.860 E57.3375
G1 X110.860 Y103.848 E57.8323
G1 X110.860 Y104.414 E57.8605
G1 X104.414 Y110.860 E58.3153
G1 X104.979 Y110.860 E58.3436
G1 X110.860 Y104.979 E58.7585
G1 X110.860 Y105.545 E58.7867
G1 X105.545 Y110.860 E59.1617
G1 X106.111 Y110.860 E59.1899
G1 X110.860 Y106.111 E59.5250
G1 X110.860 Y106.676 E59.5532
G1 X106.676 Y110.860 E59.8484
G1 X107.242 Y110.860 E59.8767
G1 X110.860 Y107.242 E60.1319
G1 X110.860 Y107.808 E60.1601
G1 X107.808 Y110.860 E60.3755
G1 X108.373 Y110.860 E60.4037
G1 X110.860 Y108.373 E60.5792
G1 X110.860 Y108.939 E60.6074
G1 X108.939 Y110.860 E60.7429
G1 X109.505 Y110.860 E60.7712
G1 X110.860 Y109.505 E60.8668
G1 X110.860 Y110.070 E60.8950
G1 X110.070 Y110.860 E60.9507
G1 X110.636 Y110.860 E60.9789
G1 X110.860 Y110.636 E60.9947
G92 E0
G1 E-1.0000 F1800
; layer 2, Z = 0.57
; inner perimeter
G1 X111.200 Y111.200 F4800
G1 Z0.570 F1000
G1 E0.0000 F1800
G92 E0
G1 X88.800 Y111.200 E1.1175 F2700
G1 X88.800 Y88.800 E2.2351
G1 X111.200 Y88.800 E3.3526
G1 X111.200 Y111.200 E4.4702
; outer perimeter
G1 X111.600 Y111.600 F4800
G92 E0
G1 X88.400 Y111.600 E1.1575 F1800
G1 X88.400 Y88.400 E2.3149
G1 X111.600 Y88.400 E3.4724
G1 X111.600 Y111.600 E4.6298
; solid layer
G1 X89.364 Y110.860 F4800
G92 E0
G1 X89.140 Y110.636 E0.0158 F2880
G1 X89.140 Y110.070 E0.0440
G1 X89.930 Y110.860 E0.0997
G1 X90.495 Y110.860 E0.1280
G1 X89.140 Y109.505 E0.2236
G1 X89.140 Y108.939 E0.2518
G1 X91.061 Y110.860 E0.3873
G1 X91.627 Y110.860 E0.4156
G1 X89.140 Y108.373 E0.5910
G1 X89.140 Y107.808 E0.6192
G1 X92.192 Y110.860 E0.8346
G1 X92.758 Y110.860 E0.8628
G1 X89.140 Y107.242 E1.1181
G1 X89.140 Y106.676 E1.1463
G1 X93.324 Y110.860 E1.4415
G1 X93.889 Y110.860 E1.4697
G1 X89.140 Y106.111 E1.8048
G1 X89.140 Y105.545 E1.8331
G1 X94.455 Y110.860 E2.2081
G1 X95.021 Y110.860 E2.2363
G1 X89.140 Y104.979 E2.6512
G1 X89.140 Y104.413 E2.6794
G1 X95.587 Y110.860 E3.1343
G1 X96.152 Y110.860 E3.1625
G1 X89.140 Y103.848 E3.6572
G1 X89.140 Y103.282 E3.6855
G1 X96.718 Y110.860 E4.2201
G1 X97.284 Y110.860 E4.2483
G1 X89.140 Y102.716 E4.8229
G1 X89.140 Y102.151 E4.8511
G1 X97.849 Y110.860 E5.4656
G1 X98.415 Y110.860 E5.4938
G1 X89.140 Y101.585 E6.1482
G1 X89.140 Y101.019 E6.1765
G1 X98.981 Y110.860 E6.8708
G1 X99.546 Y110.860 E6.8990
G1 X89.140 Y100.454 E7.6332
G1 X89.140 Y99.888 E7.6614
G1 X100.112 Y110.860 E8.4356
G1 X100.678 Y110.860 E8.4638
G1 X89.140 Y99.322 E9.2778
G1 X89.140 Y98.757 E9.3061
G1 X101.243 Y110.860 E10.1600
G1 X101.809 Y110.860 E10.1882
G1 X89.140 Y98.191 E11.0821
G1 X89.140 Y97.625 E11.1103
G1 X102.375 Y110.860 E12.0441
G1 X102.940 Y110.860 E12.0723
G1 X89.140 Y97.060 E13.0460
G1 X89.140 Y96.494 E13.0742
G1 X103.506 Y110.860 E14.0879
G1 X104.072 Y110.860 E14.1161
G1 X89.140 Y95.928 E15.1696
G1 X89.140 Y95.363 E15.1978
G1 X104.637 Y110.860 E16.2912
G1 X105.203 Y110.860 E16.3195
G1 X89.140 Y94.797 E17.4528
G1 X89.140 Y94.231 E17.4810
G1 X105.769 Y110.860 E18.6543
G1 X106.335 Y110.860 E18.6825
G1 X89.140 Y93.665 E19.8957
G1 X89.140 Y93.100 E19.9239
G1 X106.900 Y110.860 E21.1770
G1 X107.466 Y110.860 E21.2052
G1 X89.140 Y92.534 E22.4982
G1 X89.140 Y91.968 E22.5264
G1 X108.032 Y110.860 E23.8593
G1 X108.597 Y110.860 E23.8875
G1 X89.140 Y91.403 E25.2603
G1 X89.140 Y90.837 E25.2886
G1 X109.163 Y110.860 E26.7013
G1 X109.729 Y110.860 E26.7295
G1 X89.140 Y90.271 E28.1822
G1 X89.140 Y89.706 E28.2104
G1 X110.294 Y110.860 E29.7029
G1 X110.860 Y110.860 E29.7312
G1 X110.860 Y110.860 E29.7312
G1 X89.140 Y89.140 E31.2636
G1 X89.706 Y89.140 E31.2918
G1 X110.860 Y110.294 E32.7844
G1 X110.860 Y109.729 E32.8126
G1 X90.271 Y89.140 E34.2653
G1 X90.837 Y89.140 E34.2935
G1 X110.860 Y109.163 E35.7062
G1 X110.860 Y108.597 E35.7344
G1 X91.403 Y89.140 E37.1072
G1 X91.968 Y89.140 E37.1355
G1 X110.860 Y108.032 E38.4684
G1 X110.860 Y107.466 E38.4966
G1 X92.534 Y89.140 E39.7896
G1 X93.100 Y89.140 E39.8178
G1 X110.860 Y106.900 E41.0709
G1 X110.860 Y106.335 E41.0991
G1 X93.665 Y89.140 E42.3123
G1 X94.231 Y89.140 E42.3405
G1 X110.860 Y105.769 E43.5137
G1 X110.860 Y105.203 E43.5420
G1 X94.797 Y89.140 E44.6753
G1 X95.363 Y89.140 E44.7035
G1 X110.860 Y104.637 E45.7970
G1 X110.860 Y104.072 E45.8252
G1 X95.928 Y89.140 E46.8787
G1 X96.494 Y89.140 E46.9069
G1 X110.860 Y103.506 E47.9205
G1 X110.860 Y102.940 E47.9487
G1 X97.060 Y89.140 E48.9224
G1 X97.625 Y89.140 E48.9507
G1 X110.860 Y102.375 E49.8844
G1 X110.860 Y101.809 E49.9127
G1 X98.191 Y89.140 E50.8065
G1 X98.757 Y89.140 E50.8347
G1 X110.860 Y101.243 E51.6887
G1 X110.860 Y100.678 E51.7169
G1 X99.322 Y89.140 E52.5310
G1 X99.888 Y89.140 E52.5592
G1 X110.860 Y100.112 E53.3333
G1 X110.860 Y99.546 E53.3615
G1 X100.454 Y89.140 E54.0958
G1 X101.019 Y89.140 E54.1240
G1 X110.860 Y98.981 E54.8183
G1 X110.860 Y98.415 E54.8465
G1 X101.585 Y89.140 E55.5009
G1 X102.151 Y89.140 E55.5291
G1 X110.860 Y97.849 E56.1436
G1 X110.860 Y97.284 E56.1718
G1 X102.716 Y89.140 E56.7464
G1 X103.282 Y89.140 E56.7746
G1 X110.860 Y96.718 E57.3093
G1 X110.860 Y96.152 E57.3375
G1 X103.848 Y89.140 E57.8323
G1 X104.414 Y89.140 E57.8605
G1 X110.860 Y95.586 E58.3153
G1 X110.860 Y95.021 E58.3435
G1 X104.979 Y89.140 E58.7585
G1 X105.545 Y89.140 E58.7867
G1 X110.860 Y94.455 E59.1617
G1 X110.860 Y93.889 E59.1899
G1 X106.111 Y89.140 E59.5250
G1 X106.676 Y89.140 E59.5532
G1 X110.860 Y93.324 E59.8484
G1 X110.860 Y92.758 E59.8766
G1 X107.242 Y89.140 E60.1319
G1 X107.808 Y89.140 E60.1601
G1 X110.860 Y92.192 E60.3755
G1 X110.860 Y91.627 E60.4037
G1 X108.373 Y89.140 E60.5792
G1 X108.939 Y89.140 E60.6074
G1 X110.860 Y91.061 E60.7429
G1 X110.860 Y90.495 E60.7712
G1 X109.505 Y89.140 E60.8668
G1 X110.070 Y89.140 E60.8950
G1 X110.860 Y89.930 E60.9507
G1 X110.860 Y89.364 E60.9789
G1 X110.636 Y89.140 E60.9947
