; G-Code generated by Simplify3D(R) Version 3.0.2
; Mar 29, 2016 at 1:36:40 PM
; Settings Summary
;   processName,Process1
;   applyToModels,FilamentGuide
;   profileName,12" Pegasus Lite6 1.75
;   profileVersion,2015-10-30 15:05:24
;   baseProfile,Default
;   printMaterial,PLA
;   printQuality,Fast
;   printExtruders,
;   extruderName,Extruder 1
;   extruderToolheadNumber,0
;   extruderDiameter,0.4
;   extruderAutoWidth,1
;   extruderWidth,0.48
;   extrusionMultiplier,0.9
;   extruderUseRetract,1
;   extruderRetractionDistance,1
;   extruderExtraRestartDistance,0
;   extruderRetractionZLift,0
;   extruderRetractionSpeed,1800
;   extruderUseCoasting,0
;   extruderCoastingDistance,0.2
;   extruderUseWipe,0
;   extruderWipeDistance,5
;   primaryExtruder,0
;   layerHeight,0.3
;   topSolidLayers,3
;   bottomSolidLayers,3
;   perimeterOutlines,1
;   printPerimetersInsideOut,1
;   startPointOption,2
;   startPointOriginX,0
;   startPointOriginY,0
;   startPointOriginZ,300
;   sequentialIslands,0
;   spiralVaseMode,0
;   firstLayerHeightPercentage,90
;   firstLayerWidthPercentage,100
;   firstLayerUnderspeed,0.5
;   useRaft,0
;   raftExtruder,0
;   raftLayers,3
;   raftOffset,3
;   raftSeparationDistance,0.14
;   raftInfill,85
;   disableRaftBaseLayers,0
;   useSkirt,0
;   skirtExtruder,0
;   skirtLayers,1
;   skirtOutlines,2
;   skirtOffset,4
;   usePrimePillar,0
;   primePillarExtruder,999
;   primePillarWidth,12
;   primePillarLocation,7
;   primePillarSpeedMultiplier,1
;   useOozeShield,0
;   oozeShieldExtruder,999
;   oozeShieldOffset,2
;   oozeShieldOutlines,1
;   oozeShieldSidewallShape,1
;   oozeShieldSidewallAngle,30
;   oozeShieldSpeedMultiplier,1
;   infillExtruder,0
;   internalInfillPattern,Rectilinear
;   externalInfillPattern,Rectilinear
;   infillPercentage,50
;   outlineOverlapPercentage,15
;   infillExtrusionWidthPercentage,100
;   minInfillLength,5
;   infillLayerInterval,1
;   infillAngles,45,-45
;   overlapInfillAngles,0
;   generateSupport,1
;   supportExtruder,0
;   supportInfillPercentage,25
;   supportExtraInflation,0
;   denseSupportLayers,0
;   denseSupportInfillPercentage,70
;   supportLayerInterval,1
;   supportHorizontalPartOffset,0.3
;   supportUpperSeparationLayers,1
;   supportLowerSeparationLayers,1
;   supportType,0
;   supportGridSpacing,4
;   maxOverhangAngle,45
;   supportAngles,0
;   temperatureName,Extruder 1 Temperature,Heated Bed
;   temperatureNumber,0,0
;   temperatureSetpointCount,1,1
;   temperatureSetpointLayers,1,1
;   temperatureSetpointTemperatures,200,80
;   temperatureStabilizeAtStartup,1,1
;   temperatureHeatedBed,0,1
;   temperatureRelayBetweenLayers,0,0
;   temperatureRelayBetweenLoops,0,0
;   fanLayers,1,2
;   fanSpeeds,0,100
;   blipFanToFullPower,0
;   adjustSpeedForCooling,1
;   minSpeedLayerTime,15
;   minCoolingSpeedSlowdown,20
;   increaseFanForCooling,0
;   minFanLayerTime,45
;   maxCoolingFanSpeed,100
;   increaseFanForBridging,0
;   bridgingFanSpeed,100
;   use5D,1
;   relativeEdistances,0
;   allowEaxisZeroing,1
;   independentExtruderAxes,0
;   includeM10123,0
;   stickySupport,1
;   applyToolheadOffsets,0
;   gcodeXoffset,0
;   gcodeYoffset,0
;   gcodeZoffset,0
;   overrideMachineDefinition,1
;   machineTypeOverride,0
;   strokeXoverride,300
;   strokeYoverride,300
;   strokeZoverride,300
;   originOffsetXoverride,0
;   originOffsetYoverride,0
;   originOffsetZoverride,0
;   homeXdirOverride,-1
;   homeYdirOverride,-1
;   homeZdirOverride,-1
;   flipXoverride,1
;   flipYoverride,-1
;   flipZoverride,1
;   toolheadOffsets,0,0|0,0|0,0|0,0|0,0|0,0
;   overrideFirmwareConfiguration,1
;   firmwareTypeOverride,RepRap (Marlin/Repetier/Sprinter)
;   GPXconfigOverride,r2
;   baudRateOverride,250000
;   overridePrinterModels,0
;   printerModelsOverride
;   startingGcode,G28 ; home all axes
;   layerChangeGcode,
;   retractionGcode,
;   toolChangeGcode,
;   endingGcode,M104 S0 ; turn off extruder,M140 S0 ; turn off bed,G28 X0  ; home X axis,G28 Y0  ; home Y axis,M84 ; disable motors
;   createX3G,0
;   celebration,0
;   celebrationSong,Random Song
;   createMB5G,0
;   postProcessing,
;   defaultSpeed,4800
;   outlineUnderspeed,0.5
;   solidInfillUnderspeed,0.8
;   supportUnderspeed,0.8
;   rapidXYspeed,4800
;   rapidZspeed,1000
;   minBridgingArea,50
;   bridgingExtraInflation,0
;   bridgingExtrusionMultiplier,1
;   bridgingSpeedMultiplier,1
;   filamentDiameter,1.7
;   filamentPricePerKg,25
;   filamentDensity,1.25
;   useMinPrintHeight,0
;   minPrintHeight,0
;   useMaxPrintHeight,0
;   maxPrintHeight,80
;   useDiaphragm,0
;   diaphragmLayerInterval,20
;   robustSlicing,1
;   mergeAllIntoSolid,0
;   onlyRetractWhenCrossingOutline,1
;   retractBetweenLayers,1
;   useRetractionMinTravel,0
;   retractionMinTravel,3
;   retractWhileWiping,0
;   onlyWipeOutlines,1
;   avoidCrossingOutline,0
;   maxMovementDetourFactor,3
;   toolChangeRetractionDistance,12
;   toolChangeExtraRestartDistance,-0.5
;   toolChangeRetractionSpeed,600
;   allowThinWallGapFill,1
;   thinWallAllowedOverlapPercentage,10
;   horizontalSizeCompensation,-0.1
G90
M82
M106 S0
M140 S80
M190 S80
M104 S200 T0
M109 S200 T0
G28 ; home all axes
G92 E0
G1 E-1.0000 F1800
G1 Z0.270 F1000
; layer 1, Z = 0.27
T0
; tool H0.300 W0.480
; outer perimeter
G1 X151.928 Y180.288 F4800
G1 E0.0000 F540
G92 E0
G1 X153.949 Y182.309 E0.1632 F1169
G1 X150.188 Y186.071 E0.4670
G1 X148.166 Y184.049 E0.6302
G1 X151.928 Y180.288 E0.9340
; solid layer
G1 X148.978 Y184.284 F4800
G92 E0
G1 X152.163 Y181.099 E0.2572 F1871
G1 X152.502 Y181.439 E0.2846
G1 X149.317 Y184.624 E0.5417
G1 X149.657 Y184.963 E0.5691
G1 X152.842 Y181.778 E0.8263
G1 X153.181 Y182.118 E0.8537
G1 X149.996 Y185.302 E1.1109
G92 E0
G1 E-1.0000 F1800
; support
G1 X147.018 Y182.640 F4800
G1 E0.0000 F1800
G92 E0
G1 X143.880 Y182.640 E0.1792 F1871
G1 X143.880 Y180.720 E0.2888
G1 X148.120 Y180.720 E0.5309
G1 X148.120 Y180.120 E0.5652
G1 X149.538 Y180.120 E0.6461
G1 X150.858 Y178.800 E0.7527
G1 X147.880 Y178.800 E0.9228
G1 X147.880 Y179.880 E0.9844
G1 X144.120 Y179.880 E1.1991
G1 X144.120 Y178.800 E1.2608
G1 X139.880 Y178.800 E1.5029
G1 X139.880 Y176.880 E1.6125
G1 X144.120 Y176.880 E1.8546
G1 X144.120 Y176.120 E1.8980
G1 X147.880 Y176.120 E2.1127
G1 X147.880 Y176.880 E2.1561
G1 X152.120 Y176.880 E2.3982
G1 X152.120 Y175.880 E2.4553
G1 X148.120 Y175.880 E2.6837
G1 X148.120 Y174.960 E2.7362
G1 X139.880 Y174.960 E3.2067
G1 X139.880 Y173.040 E3.3163
G1 X148.120 Y173.040 E3.7868
G1 X148.120 Y171.120 E3.8964
G1 X139.880 Y171.120 E4.3669
G1 X139.880 Y169.200 E4.4765
G1 X148.120 Y169.200 E4.9470
G1 X148.120 Y167.280 E5.0566
G1 X139.880 Y167.280 E5.5271
G1 X139.880 Y165.360 E5.6367
G1 X148.120 Y165.360 E6.1072
G1 X148.120 Y163.440 E6.2168
G1 X139.880 Y163.440 E6.6873
G1 X139.880 Y161.520 E6.7970
G1 X148.120 Y161.520 E7.2674
G1 X148.120 Y159.600 E7.3771
G1 X139.880 Y159.600 E7.8476
G1 X139.880 Y157.680 E7.9572
G1 X148.120 Y157.680 E8.4277
G1 X148.120 Y155.760 E8.5373
G1 X139.880 Y155.760 E9.0078
G1 X139.880 Y153.840 E9.1174
G1 X148.120 Y153.840 E9.5879
G1 X148.120 Y151.920 E9.6975
G1 X139.880 Y151.920 E10.1680
G1 X139.880 Y150.000 E10.2776
G1 X148.120 Y150.000 E10.7481
G1 X148.120 Y148.080 E10.8577
G1 X139.880 Y148.080 E11.3282
G1 X139.880 Y146.160 E11.4378
G1 X148.120 Y146.160 E11.9083
G1 X148.120 Y144.240 E12.0180
G1 X139.880 Y144.240 E12.4884
G1 X139.880 Y142.320 E12.5981
G1 X148.120 Y142.320 E13.0686
G1 X148.120 Y140.400 E13.1782
G1 X139.880 Y140.400 E13.6487
G1 X139.880 Y138.480 E13.7583
G1 X148.120 Y138.480 E14.2288
G1 X148.120 Y136.560 E14.3384
G1 X139.880 Y136.560 E14.8089
G1 X139.880 Y134.640 E14.9185
G1 X148.120 Y134.640 E15.3890
G1 X148.120 Y132.720 E15.4986
G1 X139.880 Y132.720 E15.9691
G1 X139.880 Y130.800 E16.0787
G1 X148.120 Y130.800 E16.5492
G1 X148.120 Y128.880 E16.6588
G1 X139.880 Y128.880 E17.1293
G1 X139.880 Y126.960 E17.2390
G1 X148.120 Y126.960 E17.7094
G1 X148.120 Y125.040 E17.8191
G1 X139.880 Y125.040 E18.2895
G1 X139.880 Y123.120 E18.3992
G1 X148.120 Y123.120 E18.8697
G1 X148.120 Y121.200 E18.9793
G1 X139.880 Y121.200 E19.4498
G1 X139.880 Y119.280 E19.5594
G1 X148.120 Y119.280 E20.0299
G1 X148.120 Y117.360 E20.1395
G1 X139.880 Y117.360 E20.6100
G1 X139.880 Y115.440 E20.7196
G1 X144.120 Y115.440 E20.9617
G1 X144.120 Y113.520 E21.0713
G1 X139.880 Y113.520 E21.3134
G1 X139.880 Y111.600 E21.4231
G1 X148.120 Y111.600 E21.8935
G1 X148.120 Y109.680 E22.0032
G1 X139.880 Y109.680 E22.4737
G92 E0
G1 E-1.0000 F1800
G1 X151.544 Y178.800 F4800
G1 E0.0000 F1800
G92 E0
G1 X152.120 Y178.800 E0.0329 F1871
G92 E0
G1 E-1.0000 F1800
G1 X154.359 Y184.560 F4800
G1 E0.0000 F1800
G92 E0
G1 X160.120 Y184.560 E0.3290 F1871
G1 X160.120 Y186.480 E0.4386
G1 X152.439 Y186.480 E0.8772
G1 X151.880 Y187.039 E0.9223
G1 X151.880 Y188.400 E1.0000
G1 X156.120 Y188.400 E1.2421
G1 X156.120 Y190.320 E1.3517
G1 X151.880 Y190.320 E1.5938
G92 E0
G1 E-1.0000 F1800
; layer 2, Z = 0.57
M106 S255
; outer perimeter
G1 X150.966 Y186.849 F4800
G1 Z0.570 F1000
G1 E0.0000 F1800
G92 E0
G1 X147.439 Y183.322 E0.2848 F1235
G1 X151.201 Y179.560 E0.5886
G1 X154.728 Y183.088 E0.8734
G1 X150.966 Y186.849 E1.1772
; solid layer
G1 X148.020 Y183.318 F4800
G92 E0
G1 X150.970 Y186.269 E0.2382 F1976
G1 X151.309 Y185.929 E0.2656
G1 X148.359 Y182.979 E0.5039
G1 X148.699 Y182.640 E0.5313
G1 X151.649 Y185.590 E0.7695
G1 X151.988 Y185.250 E0.7969
G1 X149.038 Y182.300 E1.0351
G1 X149.377 Y181.961 E1.0625
G1 X152.328 Y184.911 E1.3008
G1 X152.667 Y184.572 E1.3282
G1 X149.717 Y181.621 E1.5664
G1 X150.056 Y181.282 E1.5938
G1 X153.006 Y184.232 E1.8320
G1 X153.346 Y183.893 E1.8594
G1 X150.396 Y180.943 E2.0977
G1 X150.735 Y180.603 E2.1251
G1 X153.685 Y183.553 E2.3633
G1 X154.025 Y183.214 E2.3907
G1 X151.074 Y180.264 E2.6289
G92 E0
G1 E-1.0000 F1800
; support
G1 X151.544 Y178.800 F4800
G1 E0.0000 F1800
G92 E0
G1 X152.120 Y178.800 E0.0329 F1976
G92 E0
G1 E-1.0000 F1800
G1 X155.803 Y184.560 F4800
G1 E0.0000 F1800
G92 E0
G1 X160.120 Y184.560 E0.2465 F1976
G1 X160.120 Y186.480 E0.3561
G1 X153.883 Y186.480 E0.7123
G1 X151.963 Y188.400 E0.8673
G1 X156.120 Y188.400 E1.1047
G1 X156.120 Y190.320 E1.2143
G1 X151.880 Y190.320 E1.4564
G92 E0
G1 E-1.0000 F1800
G1 X145.654 Y182.640 F4800
G1 E0.0000 F1800
G92 E0
G1 X143.880 Y182.640 E0.1013 F1976
G1 X143.880 Y180.720 E0.2109
G1 X147.410 Y180.720 E0.4125
G1 X149.330 Y178.800 E0.5675
G1 X147.880 Y178.800 E0.6503
G1 X147.880 Y179.880 E0.7119
G1 X144.120 Y179.880 E0.9266
G1 X144.120 Y178.800 E0.9883
G1 X139.880 Y178.800 E1.2304
G1 X139.880 Y176.880 E1.3400
G1 X144.120 Y176.880 E1.5821
G1 X144.120 Y176.120 E1.6255
G1 X147.880 Y176.120 E1.8402
G1 X147.880 Y176.880 E1.8836
G1 X152.120 Y176.880 E2.1257
G1 X152.120 Y175.880 E2.1828
G1 X148.120 Y175.880 E2.4112
G1 X148.120 Y174.960 E2.4637
G1 X139.880 Y174.960 E2.9342
G1 X139.880 Y173.040 E3.0438
G1 X148.120 Y173.040 E3.5143
G1 X148.120 Y171.120 E3.6239
G1 X139.880 Y171.120 E4.0944
G1 X139.880 Y169.200 E4.2040
G1 X148.120 Y169.200 E4.6745
G1 X148.120 Y167.280 E4.7841
G1 X139.880 Y167.280 E5.2546
G1 X139.880 Y165.360 E5.3642
G1 X148.120 Y165.360 E5.8347
G1 X148.120 Y163.440 E5.9444
G1 X139.880 Y163.440 E6.4148
G1 X139.880 Y161.520 E6.5245
G1 X148.120 Y161.520 E6.9949
G1 X148.120 Y159.600 E7.1046
G1 X139.880 Y159.600 E7.5751
G1 X139.880 Y157.680 E7.6847
G1 X148.120 Y157.680 E8.1552
G1 X148.120 Y155.760 E8.2648
G1 X139.880 Y155.760 E8.7353
G1 X139.880 Y153.840 E8.8449
G1 X148.120 Y153.840 E9.3154
G1 X148.120 Y151.920 E9.4250
G1 X139.880 Y151.920 E9.8955
G1 X139.880 Y150.000 E10.0051
G1 X148.120 Y150.000 E10.4756
G1 X148.120 Y148.080 E10.5852
G1 X139.880 Y148.080 E11.0557
G1 X139.880 Y146.160 E11.1654
G1 X148.120 Y146.160 E11.6358
G1 X148.120 Y144.240 E11.7455
G1 X139.880 Y144.240 E12.2159
G1 X139.880 Y142.320 E12.3256
G1 X148.120 Y142.320 E12.7961
G1 X148.120 Y140.400 E12.9057
G1 X139.880 Y140.400 E13.3762
G1 X139.880 Y138.480 E13.4858
G1 X148.120 Y138.480 E13.9563
G1 X148.120 Y136.560 E14.0659
G1 X139.880 Y136.560 E14.5364
G1 X139.880 Y134.640 E14.6460
G1 X148.120 Y134.640 E15.1165
G1 X148.120 Y132.720 E15.2261
G1 X139.880 Y132.720 E15.6966
G1 X139.880 Y130.800 E15.8062
G1 X148.120 Y130.800 E16.2767
G1 X148.120 Y128.880 E16.3863
G1 X139.880 Y128.880 E16.8568
G1 X139.880 Y126.960 E16.9665
G1 X148.120 Y126.960 E17.4369
G1 X148.120 Y125.040 E17.5466
G1 X139.880 Y125.040 E18.0171
G1 X139.880 Y123.120 E18.1267
G1 X148.120 Y123.120 E18.5972
G1 X148.120 Y121.200 E18.7068
G1 X139.880 Y121.200 E19.1773
G1 X139.880 Y119.280 E19.2869
G1 X148.120 Y119.280 E19.7574
G1 X148.120 Y117.360 E19.8670
G1 X139.880 Y117.360 E20.3375
G1 X139.880 Y115.440 E20.4471
G1 X144.120 Y115.440 E20.6892
G1 X144.120 Y113.520 E20.7988
G1 X139.880 Y113.520 E21.0409
G1 X139.880 Y111.600 E21.1506
G1 X148.120 Y111.600 E21.6210
G1 X148.120 Y109.680 E21.7307
G1 X139.880 Y109.680 E22.2012
G92 E0
G1 E-1.0000 F1800
; layer 3, Z = 0.87
; outer perimeter
G1 X150.437 Y178.796 F4800
G1 Z0.870 F1000
G1 E0.0000 F1800
G92 E0
G1 X155.450 Y183.809 E0.4048 F1293
G1 X151.688 Y187.571 E0.7086
G1 X146.675 Y182.558 E1.1134
G1 X150.437 Y178.796 E1.4171
; solid layer
G1 X147.281 Y182.587 F4800
G92 E0
G1 X150.466 Y179.402 E0.2572 F2069
G1 X150.805 Y179.742 E0.2846
G1 X147.620 Y182.927 E0.5417
G1 X147.960 Y183.266 E0.5691
G1 X151.145 Y180.081 E0.8263
G1 X151.484 Y180.421 E0.8537
G1 X148.299 Y183.605 E1.1109
G1 X148.639 Y183.945 E1.1383
G1 X151.823 Y180.760 E1.3955
G1 X152.163 Y181.099 E1.4229
G1 X148.978 Y184.284 E1.6800
G1 X149.317 Y184.624 E1.7074
G1 X152.502 Y181.439 E1.9646
G1 X152.842 Y181.778 E1.9920
G1 X149.657 Y184.963 E2.2492
G1 X149.996 Y185.302 E2.2766
G1 X153.181 Y182.118 E2.5337
G1 X153.521 Y182.457 E2.5612
G1 X150.336 Y185.642 E2.8183
G1 X150.675 Y185.981 E2.8457
G1 X153.860 Y182.796 E3.1029
G1 X154.199 Y183.136 E3.1303
G1 X151.015 Y186.321 E3.3875
G1 X151.354 Y186.660 E3.4149
G1 X154.539 Y183.475 E3.6720
G92 E0
G1 E-1.0000 F1800
; support
G1 X156.552 Y184.560 F4800
G1 E0.0000 F1800
G92 E0
G1 X160.120 Y184.560 E0.2037 F2069
G1 X160.120 Y186.480 E0.3133
G1 X155.880 Y186.480 E0.5554
G1 X155.880 Y187.880 E0.6354
G1 X153.232 Y187.880 E0.7866
G1 X152.712 Y188.400 E0.8285
G1 X156.120 Y188.400 E1.0231
G1 X156.120 Y190.320 E1.1328
G1 X151.880 Y190.320 E1.3748
G92 E0
G1 E-1.0000 F1800
G1 X145.654 Y182.640 F4800
G1 E0.0000 F1800
G92 E0
G1 X143.880 Y182.640 E0.1013 F2069
G1 X143.880 Y180.720 E0.2109
G1 X146.688 Y180.720 E0.3712
G1 X147.528 Y179.880 E0.4391
G1 X144.120 Y179.880 E0.6337
G1 X144.120 Y178.800 E0.6953
G1 X139.880 Y178.800 E0.9374
G1 X139.880 Y176.880 E1.0470
G1 X144.120 Y176.880 E1.2891
G1 X144.120 Y176.120 E1.3325
G1 X147.880 Y176.120 E1.5472
G1 X147.880 Y176.880 E1.5906
G1 X152.120 Y176.880 E1.8327
G1 X152.120 Y175.880 E1.8898
G1 X148.120 Y175.880 E2.1182
G1 X148.120 Y174.960 E2.1707
G1 X139.880 Y174.960 E2.6412
G1 X139.880 Y173.040 E2.7508
G1 X148.120 Y173.040 E3.2213
G1 X148.120 Y171.120 E3.3309
G1 X139.880 Y171.120 E3.8014
G1 X139.880 Y169.200 E3.9111
G1 X148.120 Y169.200 E4.3815
G1 X148.120 Y167.280 E4.4912
G1 X139.880 Y167.280 E4.9616
G1 X139.880 Y165.360 E5.0713
G1 X148.120 Y165.360 E5.5418
G1 X148.120 Y163.440 E5.6514
G1 X139.880 Y163.440 E6.1219
G1 X139.880 Y161.520 E6.2315
G1 X148.120 Y161.520 E6.7020
G1 X148.120 Y159.600 E6.8116
G1 X139.880 Y159.600 E7.2821
G1 X139.880 Y157.680 E7.3917
G1 X148.120 Y157.680 E7.8622
G1 X148.120 Y155.760 E7.9718
G1 X139.880 Y155.760 E8.4423
G1 X139.880 Y153.840 E8.5519
G1 X148.120 Y153.840 E9.0224
G1 X148.120 Y151.920 E9.1321
G1 X139.880 Y151.920 E9.6025
G1 X139.880 Y150.000 E9.7122
G1 X148.120 Y150.000 E10.1826
G1 X148.120 Y148.080 E10.2923
G1 X139.880 Y148.080 E10.7628
G1 X139.880 Y146.160 E10.8724
G1 X148.120 Y146.160 E11.3429
G1 X148.120 Y144.240 E11.4525
G1 X139.880 Y144.240 E11.9230
G1 X139.880 Y142.320 E12.0326
G1 X148.120 Y142.320 E12.5031
G1 X148.120 Y140.400 E12.6127
G1 X139.880 Y140.400 E13.0832
G1 X139.880 Y138.480 E13.1928
G1 X148.120 Y138.480 E13.6633
G1 X148.120 Y136.560 E13.7729
G1 X139.880 Y136.560 E14.2434
G1 X139.880 Y134.640 E14.3530
G1 X148.120 Y134.640 E14.8235
G1 X148.120 Y132.720 E14.9332
G1 X139.880 Y132.720 E15.4036
