; G-Code generated by Simplify3D(R) Version 3.0.2
; Mar 29, 2016 at 1:37:04 PM
; Settings Summary
;   processName,Process1
;   applyToModels,FilamentGuide
;   profileName,12" Pegasus Lite6 1.75
;   profileVersion,2015-10-30 15:05:24
;   baseProfile,Default
;   printMaterial,ABS
;   printQuality,Fast
;   printExtruders,
;   extruderName,Extruder 1
;   extruderToolheadNumber,0
;   extruderDiameter,0.4
;   extruderAutoWidth,1
;   extruderWidth,0.48
;   extrusionMultiplier,1
;   extruderUseRetract,1
;   extruderRetractionDistance,1
;   extruderExtraRestartDistance,0
;   extruderRetractionZLift,0
;   extruderRetractionSpeed,1800
;   extruderUseCoasting,0
;   extruderCoastingDistance,0.2
;   extruderUseWipe,0
;   extruderWipeDistance,5
;   primaryExtruder,0
;   layerHeight,0.3
;   topSolidLayers,3
;   bottomSolidLayers,3
;   perimeterOutlines,1
;   printPerimetersInsideOut,1
;   startPointOption,2
;   startPointOriginX,0
;   startPointOriginY,0
;   startPointOriginZ,300
;   sequentialIslands,0
;   spiralVaseMode,0
;   firstLayerHeightPercentage,90
;   firstLayerWidthPercentage,100
;   firstLayerUnderspeed,0.5
;   useRaft,0
;   raftExtruder,0
;   raftLayers,3
;   raftOffset,3
;   raftSeparationDistance,0.14
;   raftInfill,85
;   disableRaftBaseLayers,0
;   useSkirt,0
;   skirtExtruder,0
;   skirtLayers,1
;   skirtOutlines,2
;   skirtOffset,4
;   usePrimePillar,0
;   primePillarExtruder,999
;   primePillarWidth,12
;   primePillarLocation,7
;   primePillarSpeedMultiplier,1
;   useOozeShield,0
;   oozeShieldExtruder,999
;   oozeShieldOffset,2
;   oozeShieldOutlines,1
;   oozeShieldSidewallShape,1
;   oozeShieldSidewallAngle,30
;   oozeShieldSpeedMultiplier,1
;   infillExtruder,0
;   internalInfillPattern,Rectilinear
;   externalInfillPattern,Rectilinear
;   infillPercentage,50
;   outlineOverlapPercentage,15
;   infillExtrusionWidthPercentage,100
;   minInfillLength,5
;   infillLayerInterval,1
;   infillAngles,45,-45
;   overlapInfillAngles,0
;   generateSupport,1
;   supportExtruder,0
;   supportInfillPercentage,25
;   supportExtraInflation,0
;   denseSupportLayers,0
;   denseSupportInfillPercentage,70
;   supportLayerInterval,1
;   supportHorizontalPartOffset,0.3
;   supportUpperSeparationLayers,1
;   supportLowerSeparationLayers,1
;   supportType,0
;   supportGridSpacing,4
;   maxOverhangAngle,45
;   supportAngles,0
;   temperatureName,Extruder 1 Temperature,Heated Bed
;   temperatureNumber,0,0
;   temperatureSetpointCount,1,1
;   temperatureSetpointLayers,1,1
;   temperatureSetpointTemperatures,240,110
;   temperatureStabilizeAtStartup,1,1
;   temperatureHeatedBed,0,1
;   temperatureRelayBetweenLayers,0,0
;   temperatureRelayBetweenLoops,0,0
;   fanLayers,1
;   fanSpeeds,0
;   blipFanToFullPower,0
;   adjustSpeedForCooling,1
;   minSpeedLayerTime,15
;   minCoolingSpeedSlowdown,20
;   increaseFanForCooling,0
;   minFanLayerTime,45
;   maxCoolingFanSpeed,100
;   increaseFanForBridging,0
;   bridgingFanSpeed,100
;   use5D,1
;   relativeEdistances,0
;   allowEaxisZeroing,1
;   independentExtruderAxes,0
;   includeM10123,0
;   stickySupport,1
;   applyToolheadOffsets,0
;   gcodeXoffset,0
;   gcodeYoffset,0
;   gcodeZoffset,0
;   overrideMachineDefinition,1
;   machineTypeOverride,0
;   strokeXoverride,300
;   strokeYoverride,300
;   strokeZoverride,300
;   originOffsetXoverride,0
;   originOffsetYoverride,0
;   originOffsetZoverride,0
;   homeXdirOverride,-1
;   homeYdirOverride,-1
;   homeZdirOverride,-1
;   flipXoverride,1
;   flipYoverride,-1
;   flipZoverride,1
;   toolheadOffsets,0,0|0,0|0,0|0,0|0,0|0,0
;   overrideFirmwareConfiguration,1
;   firmwareTypeOverride,RepRap (Marlin/Repetier/Sprinter)
;   GPXconfigOverride,r2
;   baudRateOverride,250000
;   overridePrinterModels,0
;   printerModelsOverride
;   startingGcode,G28 ; home all axes
;   layerChangeGcode,
;   retractionGcode,
;   toolChangeGcode,
;   endingGcode,M104 S0 ; turn off extruder,M140 S0 ; turn off bed,G28 X0  ; home X axis,G28 Y0  ; home Y axis,M84 ; disable motors
;   createX3G,0
;   celebration,0
;   celebrationSong,Random Song
;   createMB5G,0
;   postProcessing,
;   defaultSpeed,4800
;   outlineUnderspeed,0.5
;   solidInfillUnderspeed,0.8
;   supportUnderspeed,0.8
;   rapidXYspeed,4800
;   rapidZspeed,1000
;   minBridgingArea,50
;   bridgingExtraInflation,0
;   bridgingExtrusionMultiplier,1
;   bridgingSpeedMultiplier,1
;   filamentDiameter,1.7
;   filamentPricePerKg,25
;   filamentDensity,1.25
;   useMinPrintHeight,0
;   minPrintHeight,0
;   useMaxPrintHeight,0
;   maxPrintHeight,80
;   useDiaphragm,0
;   diaphragmLayerInterval,20
;   robustSlicing,1
;   mergeAllIntoSolid,0
;   onlyRetractWhenCrossingOutline,1
;   retractBetweenLayers,1
;   useRetractionMinTravel,0
;   retractionMinTravel,3
;   retractWhileWiping,0
;   onlyWipeOutlines,1
;   avoidCrossingOutline,0
;   maxMovementDetourFactor,3
;   toolChangeRetractionDistance,12
;   toolChangeExtraRestartDistance,-0.5
;   toolChangeRetractionSpeed,600
;   allowThinWallGapFill,1
;   thinWallAllowedOverlapPercentage,10
;   horizontalSizeCompensation,-0.1
G90
M82
M106 S0
M140 S110
M190 S110
M104 S240 T0
M109 S240 T0
G28 ; home all axes
G92 E0
G1 E-1.0000 F1800
G1 Z0.270 F1000
; layer 1, Z = 0.27
T0
; tool H0.300 W0.480
; outer perimeter
G1 X151.928 Y180.288 F4800
G1 E0.0000 F540
G92 E0
G1 X153.949 Y182.309 E0.1814 F1169
G1 X150.188 Y186.071 E0.5189
G1 X148.166 Y184.049 E0.7002
G1 X151.928 Y180.288 E1.0377
; solid layer
G1 X148.978 Y184.284 F4800
G92 E0
G1 X152.163 Y181.099 E0.2857 F1871
G1 X152.502 Y181.439 E0.3162
G1 X149.317 Y184.624 E0.6019
G1 X149.657 Y184.963 E0.6324
G1 X152.842 Y181.778 E0.9181
G1 X153.181 Y182.118 E0.9486
G1 X149.996 Y185.302 E1.2343
G92 E0
G1 E-1.0000 F1800
; support
G1 X147.018 Y182.640 F4800
G1 E0.0000 F1800
G92 E0
G1 X143.880 Y182.640 E0.1991 F1871
G1 X143.880 Y180.720 E0.3209
G1 X148.120 Y180.720 E0.5899
G1 X148.120 Y180.120 E0.6280
G1 X149.538 Y180.120 E0.7179
G1 X150.858 Y178.800 E0.8364
G1 X147.880 Y178.800 E1.0253
G1 X147.880 Y179.880 E1.0938
G1 X144.120 Y179.880 E1.3324
G1 X144.120 Y178.800 E1.4009
G1 X139.880 Y178.800 E1.6699
G1 X139.880 Y176.880 E1.7917
G1 X144.120 Y176.880 E2.0607
G1 X144.120 Y176.120 E2.1089
G1 X147.880 Y176.120 E2.3474
G1 X147.880 Y176.880 E2.3956
G1 X152.120 Y176.880 E2.6646
G1 X152.120 Y175.880 E2.7281
G1 X148.120 Y175.880 E2.9818
G1 X148.120 Y174.960 E3.0402
G1 X139.880 Y174.960 E3.5630
G1 X139.880 Y173.040 E3.6848
G1 X148.120 Y173.040 E4.2075
G1 X148.120 Y171.120 E4.3293
G1 X139.880 Y171.120 E4.8521
G1 X139.880 Y169.200 E4.9739
G1 X148.120 Y169.200 E5.4967
G1 X148.120 Y167.280 E5.6185
G1 X139.880 Y167.280 E6.1412
G1 X139.880 Y165.360 E6.2630
G1 X148.120 Y165.360 E6.7858
G1 X148.120 Y163.440 E6.9076
G1 X139.880 Y163.440 E7.4304
G1 X139.880 Y161.520 E7.5522
G1 X148.120 Y161.520 E8.0749
G1 X148.120 Y159.600 E8.1967
G1 X139.880 Y159.600 E8.7195
G1 X139.880 Y157.680 E8.8413
G1 X148.120 Y157.680 E9.3641
G1 X148.120 Y155.760 E9.4859
G1 X139.880 Y155.760 E10.0086
G1 X139.880 Y153.840 E10.1304
G1 X148.120 Y153.840 E10.6532
G1 X148.120 Y151.920 E10.7750
G1 X139.880 Y151.920 E11.2978
G1 X139.880 Y150.000 E11.4196
G1 X148.120 Y150.000 E11.9423
G1 X148.120 Y148.080 E12.0642
G1 X139.880 Y148.080 E12.5869
G1 X139.880 Y146.160 E12.7087
G1 X148.120 Y146.160 E13.2315
G1 X148.120 Y144.240 E13.3533
G1 X139.880 Y144.240 E13.8760
G1 X139.880 Y142.320 E13.9979
G1 X148.120 Y142.320 E14.5206
G1 X148.120 Y140.400 E14.6424
G1 X139.880 Y140.400 E15.1652
G1 X139.880 Y138.480 E15.2870
G1 X148.120 Y138.480 E15.8097
G1 X148.120 Y136.560 E15.9316
G1 X139.880 Y136.560 E16.4543
G1 X139.880 Y134.640 E16.5761
G1 X148.120 Y134.640 E17.0989
G1 X148.120 Y132.720 E17.2207
G1 X139.880 Y132.720 E17.7435
G1 X139.880 Y130.800 E17.8653
G1 X148.120 Y130.800 E18.3880
G1 X148.120 Y128.880 E18.5098
G1 X139.880 Y128.880 E19.0326
G1 X139.880 Y126.960 E19.1544
G1 X148.120 Y126.960 E19.6772
G1 X148.120 Y125.040 E19.7990
G1 X139.880 Y125.040 E20.3217
G1 X139.880 Y123.120 E20.4435
G1 X148.120 Y123.120 E20.9663
G1 X148.120 Y121.200 E21.0881
G1 X139.880 Y121.200 E21.6109
G1 X139.880 Y119.280 E21.7327
G1 X148.120 Y119.280 E22.2554
G1 X148.120 Y117.360 E22.3772
G1 X139.880 Y117.360 E22.9000
G1 X139.880 Y115.440 E23.0218
G1 X144.120 Y115.440 E23.2908
G1 X144.120 Y113.520 E23.4126
G1 X139.880 Y113.520 E23.6816
G1 X139.880 Y111.600 E23.8034
G1 X148.120 Y111.600 E24.3262
G1 X148.120 Y109.680 E24.4480
G1 X139.880 Y109.680 E24.9707
G92 E0
G1 E-1.0000 F1800
G1 X151.544 Y178.800 F4800
G1 E0.0000 F1800
G92 E0
G1 X152.120 Y178.800 E0.0366 F1871
G92 E0
G1 E-1.0000 F1800
G1 X154.359 Y184.560 F4800
G1 E0.0000 F1800
G92 E0
G1 X160.120 Y184.560 E0.3655 F1871
G1 X160.120 Y186.480 E0.4873
G1 X152.439 Y186.480 E0.9746
G1 X151.880 Y187.039 E1.0248
G1 X151.880 Y188.400 E1.1111
G1 X156.120 Y188.400 E1.3801
G1 X156.120 Y190.320 E1.5019
G1 X151.880 Y190.320 E1.7709
G92 E0
G1 E-1.0000 F1800
; layer 2, Z = 0.57
; outer perimeter
G1 X150.966 Y186.849 F4800
G1 Z0.570 F1000
G1 E0.0000 F1800
G92 E0
G1 X147.439 Y183.322 E0.3165 F1235
G1 X151.201 Y179.560 E0.6540
G1 X154.728 Y183.088 E0.9704
G1 X150.966 Y186.849 E1.3079
; solid layer
G1 X148.020 Y183.318 F4800
G92 E0
G1 X150.970 Y186.269 E0.2647 F1976
G1 X151.309 Y185.929 E0.2951
G1 X148.359 Y182.979 E0.5598
G1 X148.699 Y182.640 E0.5903
G1 X151.649 Y185.590 E0.8550
G1 X151.988 Y185.250 E0.8854
G1 X149.038 Y182.300 E1.1501
G1 X149.377 Y181.961 E1.1806
G1 X152.328 Y184.911 E1.4453
G1 X152.667 Y184.572 E1.4757
G1 X149.717 Y181.621 E1.7404
G1 X150.056 Y181.282 E1.7709
G1 X153.006 Y184.232 E2.0356
G1 X153.346 Y183.893 E2.0660
G1 X150.396 Y180.943 E2.3307
G1 X150.735 Y180.603 E2.3612
G1 X153.685 Y183.553 E2.6259
G1 X154.025 Y183.214 E2.6563
G1 X151.074 Y180.264 E2.9210
G92 E0
G1 E-1.0000 F1800
; support
G1 X151.544 Y178.800 F4800
G1 E0.0000 F1800
G92 E0
G1 X152.120 Y178.800 E0.0366 F1976
G92 E0
G1 E-1.0000 F1800
G1 X155.803 Y184.560 F4800
G1 E0.0000 F1800
G92 E0
G1 X160.120 Y184.560 E0.2739 F1976
G1 X160.120 Y186.480 E0.3957
G1 X153.883 Y186.480 E0.7914
G1 X151.963 Y188.400 E0.9637
G1 X156.120 Y188.400 E1.2274
G1 X156.120 Y190.320 E1.3492
G1 X151.880 Y190.320 E1.6182
G92 E0
G1 E-1.0000 F1800
G1 X145.654 Y182.640 F4800
G1 E0.0000 F1800
G92 E0
G1 X143.880 Y182.640 E0.1125 F1976
G1 X143.880 Y180.720 E0.2343
G1 X147.410 Y180.720 E0.4583
G1 X149.330 Y178.800 E0.6305
G1 X147.880 Y178.800 E0.7225
G1 X147.880 Y179.880 E0.7910
G1 X144.120 Y179.880 E1.0296
G1 X144.120 Y178.800 E1.0981
G1 X139.880 Y178.800 E1.3671
G1 X139.880 Y176.880 E1.4889
G1 X144.120 Y176.880 E1.7579
G1 X144.120 Y176.120 E1.8061
G1 X147.880 Y176.120 E2.0446
G1 X147.880 Y176.880 E2.0929
G1 X152.120 Y176.880 E2.3619
G1 X152.120 Y175.880 E2.4253
G1 X148.120 Y175.880 E2.6791
G1 X148.120 Y174.960 E2.7374
G1 X139.880 Y174.960 E3.2602
G1 X139.880 Y173.040 E3.3820
G1 X148.120 Y173.040 E3.9048
G1 X148.120 Y171.120 E4.0266
G1 X139.880 Y171.120 E4.5493
G1 X139.880 Y169.200 E4.6711
G1 X148.120 Y169.200 E5.1939
G1 X148.120 Y167.280 E5.3157
G1 X139.880 Y167.280 E5.8385
G1 X139.880 Y165.360 E5.9603
G1 X148.120 Y165.360 E6.4830
G1 X148.120 Y163.440 E6.6048
G1 X139.880 Y163.440 E7.1276
G1 X139.880 Y161.520 E7.2494
G1 X148.120 Y161.520 E7.7722
G1 X148.120 Y159.600 E7.8940
G1 X139.880 Y159.600 E8.4167
G1 X139.880 Y157.680 E8.5385
G1 X148.120 Y157.680 E9.0613
G1 X148.120 Y155.760 E9.1831
G1 X139.880 Y155.760 E9.7059
G1 X139.880 Y153.840 E9.8277
G1 X148.120 Y153.840 E10.3504
G1 X148.120 Y151.920 E10.4722
G1 X139.880 Y151.920 E10.9950
G1 X139.880 Y150.000 E11.1168
G1 X148.120 Y150.000 E11.6396
G1 X148.120 Y148.080 E11.7614
G1 X139.880 Y148.080 E12.2841
G1 X139.880 Y146.160 E12.4059
G1 X148.120 Y146.160 E12.9287
G1 X148.120 Y144.240 E13.0505
G1 X139.880 Y144.240 E13.5733
G1 X139.880 Y142.320 E13.6951
G1 X148.120 Y142.320 E14.2178
G1 X148.120 Y140.400 E14.3396
G1 X139.880 Y140.400 E14.8624
G1 X139.880 Y138.480 E14.9842
G1 X148.120 Y138.480 E15.5070
G1 X148.120 Y136.560 E15.6288
G1 X139.880 Y136.560 E16.1515
G1 X139.880 Y134.640 E16.2734
G1 X148.120 Y134.640 E16.7961
G1 X148.120 Y132.720 E16.9179
G1 X139.880 Y132.720 E17.4407
G1 X139.880 Y130.800 E17.5625
G1 X148.120 Y130.800 E18.0852
G1 X148.120 Y128.880 E18.2071
G1 X139.880 Y128.880 E18.7298
G1 X139.880 Y126.960 E18.8516
G1 X148.120 Y126.960 E19.3744
G1 X148.120 Y125.040 E19.4962
G1 X139.880 Y125.040 E20.0189
G1 X139.880 Y123.120 E20.1408
G1 X148.120 Y123.120 E20.6635
G1 X148.120 Y121.200 E20.7853
G1 X139.880 Y121.200 E21.3081
G1 X139.880 Y119.280 E21.4299
G1 X148.120 Y119.280 E21.9527
G1 X148.120 Y117.360 E22.0745
G1 X139.880 Y117.360 E22.5972
G1 X139.880 Y115.440 E22.7190
G1 X144.120 Y115.440 E22.9880
G1 X144.120 Y113.520 E23.1098
G1 X139.880 Y113.520 E23.3788
G1 X139.880 Y111.600 E23.5006
G1 X148.120 Y111.600 E24.0234
G1 X148.120 Y109.680 E24.1452
G1 X139.880 Y109.680 E24.6680
G92 E0
G1 E-1.0000 F1800
; layer 3, Z = 0.87
; outer perimeter
G1 X150.437 Y178.796 F4800
G1 Z0.870 F1000
G1 E0.0000 F1800
G92 E0
G1 X155.450 Y183.809 E0.4498 F1293
G1 X151.688 Y187.571 E0.7873
G1 X146.675 Y182.558 E1.2371
G1 X150.437 Y178.796 E1.5746
; solid layer
G1 X147.281 Y182.587 F4800
G92 E0
G1 X150.466 Y179.402 E0.2857 F2069
G1 X150.805 Y179.742 E0.3162
G1 X147.620 Y182.927 E0.6019
G1 X147.960 Y183.266 E0.6324
G1 X151.145 Y180.081 E0.9181
G1 X151.484 Y180.421 E0.9486
G1 X148.299 Y183.605 E1.2343
G1 X148.639 Y183.945 E1.2648
G1 X151.823 Y180.760 E1.5505
G1 X152.163 Y181.099 E1.5810
G1 X148.978 Y184.284 E1.8667
G1 X149.317 Y184.624 E1.8972
G1 X152.502 Y181.439 E2.1829
G1 X152.842 Y181.778 E2.2133
G1 X149.657 Y184.963 E2.4991
G1 X149.996 Y185.302 E2.5295
G1 X153.181 Y182.118 E2.8153
G1 X153.521 Y182.457 E2.8457
G1 X150.336 Y185.642 E3.1315
G1 X150.675 Y185.981 E3.1619
G1 X153.860 Y182.796 E3.4477
G1 X154.199 Y183.136 E3.4781
G1 X151.015 Y186.321 E3.7638
G1 X151.354 Y186.660 E3.7943
G1 X154.539 Y183.475 E4.0800
G92 E0
G1 E-1.0000 F1800
; support
G1 X156.552 Y184.560 F4800
G1 E0.0000 F1800
G92 E0
G1 X160.120 Y184.560 E0.2264 F2069
G1 X160.120 Y186.480 E0.3482
G1 X155.880 Y186.480 E0.6172
G1 X155.880 Y187.880 E0.7060
G1 X153.232 Y187.880 E0.8740
G1 X152.712 Y188.400 E0.9206
G1 X156.120 Y188.400 E1.1368
G1 X156.120 Y190.320 E1.2586
G1 X151.880 Y190.320 E1.5276
G92 E0
G1 E-1.0000 F1800
G1 X145.654 Y182.640 F4800
G1 E0.0000 F1800
G92 E0
G1 X143.880 Y182.640 E0.1125 F2069
G1 X143.880 Y180.720 E0.2343
G1 X146.688 Y180.720 E0.4125
G1 X147.528 Y179.880 E0.4878
G1 X144.120 Y179.880 E0.7041
G1 X144.120 Y178.800 E0.7726
G1 X139.880 Y178.800 E1.0416
G1 X139.880 Y176.880 E1.1634
G1 X144.120 Y176.880 E1.4324
G1 X144.120 Y176.120 E1.4806
G1 X147.880 Y176.120 E1.7191
G1 X147.880 Y176.880 E1.7673
G1 X152.120 Y176.880 E2.0363
G1 X152.120 Y175.880 E2.0998
G1 X148.120 Y175.880 E2.3535
G1 X148.120 Y174.960 E2.4119
G1 X139.880 Y174.960 E2.9347
G1 X139.880 Y173.040 E3.0565
G1 X148.120 Y173.040 E3.5792
G1 X148.120 Y171.120 E3.7010
G1 X139.880 Y171.120 E4.2238
G1 X139.880 Y169.200 E4.3456
G1 X148.120 Y169.200 E4.8684
G1 X148.120 Y167.280 E4.9902
G1 X139.880 Y167.280 E5.5129
G1 X139.880 Y165.360 E5.6348
G1 X148.120 Y165.360 E6.1575
G1 X148.120 Y163.440 E6.2793
G1 X139.880 Y163.440 E6.8021
G1 X139.880 Y161.520 E6.9239
G1 X148.120 Y161.520 E7.4466
G1 X148.120 Y159.600 E7.5685
G1 X139.880 Y159.600 E8.0912
G1 X139.880 Y157.680 E8.2130
G1 X148.120 Y157.680 E8.7358
G1 X148.120 Y155.760 E8.8576
G1 X139.880 Y155.760 E9.3803
G1 X139.880 Y153.840 E9.5022
G1 X148.120 Y153.840 E10.0249
G1 X148.120 Y151.920 E10.1467
G1 X139.880 Y151.920 E10.6695
G1 X139.880 Y150.000 E10.7913
G1 X148.120 Y150.000 E11.3141
G1 X148.120 Y148.080 E11.4359
G1 X139.880 Y148.080 E11.9586
G1 X139.880 Y146.160 E12.0804
G1 X148.120 Y146.160 E12.6032
G1 X148.120 Y144.240 E12.7250
G1 X139.880 Y144.240 E13.2478
G1 X139.880 Y142.320 E13.3696
G1 X148.120 Y142.320 E13.8923
G1 X148.120 Y140.400 E14.0141
G1 X139.880 Y140.400 E14.5369
G1 X139.880 Y138.480 E14.6587
G1 X148.120 Y138.480 E15.1815
G1 X148.120 Y136.560 E15.3033
G1 X139.880 Y136.560 E15.8260
G1 X139.880 Y134.640 E15.9478
G1 X148.120 Y134.640 E16.4706
G1 X148.120 Y132.720 E16.5924
G1 X139.880 Y132.720 E17.1152
