; G-Code generated by Simplify3D(R) Version 3.0.2
; Mar 29, 2016 at 1:51:07 PM
; Settings Summary
;   processName,Process1
;   applyToModels,WireCover100mm
;   profileName,8" Pegasus
;   profileVersion,2016-03-29 10:44:15
;   baseProfile,Default
;   printMaterial,ABS
;   printQuality,Fast
;   printExtruders,
;   extruderName,Extruder 1
;   extruderToolheadNumber,0
;   extruderDiameter,0.4
;   extruderAutoWidth,0
;   extruderWidth,0.4
;   extrusionMultiplier,1
;   extruderUseRetract,1
;   extruderRetractionDistance,1
;   extruderExtraRestartDistance,0
;   extruderRetractionZLift,0
;   extruderRetractionSpeed,1800
;   extruderUseCoasting,0
;   extruderCoastingDistance,0.2
;   extruderUseWipe,0
;   extruderWipeDistance,5
;   primaryExtruder,0
;   layerHeight,0.3
;   topSolidLayers,5
;   bottomSolidLayers,2
;   perimeterOutlines,1
;   printPerimetersInsideOut,1
;   startPointOption,2
;   startPointOriginX,0
;   startPointOriginY,0
;   startPointOriginZ,300
;   sequentialIslands,0
;   spiralVaseMode,0
;   firstLayerHeightPercentage,90
;   firstLayerWidthPercentage,100
;   firstLayerUnderspeed,0.5
;   useRaft,0
;   raftExtruder,0
;   raftLayers,3
;   raftOffset,3
;   raftSeparationDistance,0.14
;   raftInfill,85
;   disableRaftBaseLayers,0
;   useSkirt,0
;   skirtExtruder,0
;   skirtLayers,1
;   skirtOutlines,2
;   skirtOffset,4
;   usePrimePillar,0
;   primePillarExtruder,999
;   primePillarWidth,12
;   primePillarLocation,7
;   primePillarSpeedMultiplier,1
;   useOozeShield,0
;   oozeShieldExtruder,999
;   oozeShieldOffset,2
;   oozeShieldOutlines,1
;   oozeShieldSidewallShape,1
;   oozeShieldSidewallAngle,30
;   oozeShieldSpeedMultiplier,1
;   infillExtruder,0
;   internalInfillPattern,Rectilinear
;   externalInfillPattern,Rectilinear
;   infillPercentage,60
;   outlineOverlapPercentage,15
;   infillExtrusionWidthPercentage,100
;   minInfillLength,5
;   infillLayerInterval,1
;   infillAngles,45,-45
;   overlapInfillAngles,0
;   generateSupport,1
;   supportExtruder,0
;   supportInfillPercentage,25
;   supportExtraInflation,0
;   denseSupportLayers,0
;   denseSupportInfillPercentage,70
;   supportLayerInterval,1
;   supportHorizontalPartOffset,0.3
;   supportUpperSeparationLayers,1
;   supportLowerSeparationLayers,1
;   supportType,0
;   supportGridSpacing,4
;   maxOverhangAngle,45
;   supportAngles,0
;   temperatureName,Extruder 1 Temperature,Heated Bed
;   temperatureNumber,0,0
;   temperatureSetpointCount,1,1
;   temperatureSetpointLayers,1,1
;   temperatureSetpointTemperatures,240,110
;   temperatureStabilizeAtStartup,1,1
;   temperatureHeatedBed,0,1
;   temperatureRelayBetweenLayers,0,0
;   temperatureRelayBetweenLoops,0,0
;   fanLayers,1
;   fanSpeeds,0
;   blipFanToFullPower,0
;   adjustSpeedForCooling,1
;   minSpeedLayerTime,15
;   minCoolingSpeedSlowdown,20
;   increaseFanForCooling,0
;   minFanLayerTime,45
;   maxCoolingFanSpeed,100
;   increaseFanForBridging,0
;   bridgingFanSpeed,100
;   use5D,1
;   relativeEdistances,0
;   allowEaxisZeroing,1
;   independentExtruderAxes,0
;   includeM10123,0
;   stickySupport,1
;   applyToolheadOffsets,0
;   gcodeXoffset,0
;   gcodeYoffset,0
;   gcodeZoffset,0
;   overrideMachineDefinition,1
;   machineTypeOverride,0
;   strokeXoverride,200
;   strokeYoverride,200
;   strokeZoverride,200
;   originOffsetXoverride,0
;   originOffsetYoverride,0
;   originOffsetZoverride,0
;   homeXdirOverride,-1
;   homeYdirOverride,-1
;   homeZdirOverride,-1
;   flipXoverride,1
;   flipYoverride,-1
;   flipZoverride,1
;   toolheadOffsets,0,0|0,0|0,0|0,0|0,0|0,0
;   overrideFirmwareConfiguration,1
;   firmwareTypeOverride,RepRap (Marlin/Repetier/Sprinter)
;   GPXconfigOverride,r2
;   baudRateOverride,250000
;   overridePrinterModels,0
;   printerModelsOverride
;   startingGcode,G28 ; home all axes
;   layerChangeGcode,
;   retractionGcode,
;   toolChangeGcode,
;   endingGcode,M104 S0 ; turn off extruder,M140 S0 ; turn off bed,G28 X0  ; home X axis,G28 Y0  ; home Y axis,M84 ; disable motors
;   createX3G,0
;   celebration,0
;   celebrationSong,Random Song
;   createMB5G,0
;   postProcessing,
;   defaultSpeed,4800
;   outlineUnderspeed,0.5
;   solidInfillUnderspeed,0.8
;   supportUnderspeed,0.8
;   rapidXYspeed,4800
;   rapidZspeed,1000
;   minBridgingArea,50
;   bridgingExtraInflation,0
;   bridgingExtrusionMultiplier,1
;   bridgingSpeedMultiplier,1
;   filamentDiameter,1.75
;   filamentPricePerKg,25
;   filamentDensity,1.25
;   useMinPrintHeight,0
;   minPrintHeight,0
;   useMaxPrintHeight,0
;   maxPrintHeight,0
;   useDiaphragm,0
;   diaphragmLayerInterval,20
;   robustSlicing,1
;   mergeAllIntoSolid,0
;   onlyRetractWhenCrossingOutline,1
;   retractBetweenLayers,1
;   useRetractionMinTravel,0
;   retractionMinTravel,3
;   retractWhileWiping,0
;   onlyWipeOutlines,1
;   avoidCrossingOutline,0
;   maxMovementDetourFactor,3
;   toolChangeRetractionDistance,12
;   toolChangeExtraRestartDistance,-0.5
;   toolChangeRetractionSpeed,600
;   allowThinWallGapFill,1
;   thinWallAllowedOverlapPercentage,10
;   horizontalSizeCompensation,0
G90
M82
M106 S0
M140 S110
M190 S110
M104 S240 T0
M109 S240 T0
G28 ; home all axes
G92 E0
G1 E-1.0000 F1800
G1 Z0.270 F1000
; layer 1, Z = 0.27
T0
; tool H0.300 W0.400
; outer perimeter
G1 X96.319 Y93.074 F4800
G1 E0.0000 F540
G92 E0
G1 X98.354 Y91.513 E0.1280 F484
G1 X100.714 Y90.536 E0.2554
G1 X103.050 Y90.228 E0.3729
G1 X103.050 Y95.592 E0.6405
G1 X105.260 Y97.500 E0.7862
G1 X105.850 Y97.500 E0.8156
G1 X105.850 Y95.400 E0.9204
G1 X106.550 Y95.400 E0.9553
G1 X106.550 Y98.500 E1.1100
G1 X105.347 Y98.500 E1.1700
G1 X102.350 Y95.912 E1.3676
G1 X102.350 Y90.690 E1.6281
G1 X101.192 Y90.846 E1.6864
G1 X99.284 Y91.484 E1.7867
G1 X97.469 Y92.595 E1.8929
G1 X95.951 Y94.086 E1.9991
G1 X94.809 Y95.878 E2.1051
G1 X94.098 Y97.883 E2.2112
G1 X93.856 Y99.997 E2.3174
G1 X94.096 Y102.111 E2.4236
G1 X94.806 Y104.117 E2.5297
G1 X95.949 Y105.912 E2.6359
G1 X97.469 Y107.405 E2.7422
G1 X99.284 Y108.516 E2.8483
G1 X101.196 Y109.155 E2.9489
G1 X102.350 Y109.268 E3.0068
G1 X102.350 Y104.088 E3.2652
G1 X105.347 Y101.500 E3.4627
G1 X106.550 Y101.500 E3.5227
G1 X106.550 Y104.600 E3.6774
G1 X105.850 Y104.600 E3.7123
G1 X105.850 Y102.500 E3.8171
G1 X105.260 Y102.500 E3.8465
G1 X103.050 Y104.408 E3.9922
G1 X103.050 Y109.772 E4.2598
G1 X100.714 Y109.464 E4.3773
G1 X98.351 Y108.486 E4.5049
G1 X96.322 Y106.928 E4.6326
G1 X94.767 Y104.902 E4.7600
G1 X93.787 Y102.539 E4.8876
G1 X93.452 Y100.003 E5.0152
G1 X93.785 Y97.467 E5.1428
G1 X94.763 Y95.104 E5.2704
G1 X96.319 Y93.074 E5.3980
G92 E0
G1 E-1.0000 F1800
; solid layer
G1 X102.690 Y91.087 F4800
G1 E0.0000 F1800
G92 E0
G1 X102.710 Y91.067 E0.0014 F775
G1 X102.710 Y91.633 E0.0296
G1 X102.690 Y91.653 E0.0310
G1 X102.690 Y92.219 E0.0592
G1 X102.710 Y92.199 E0.0606
G1 X102.710 Y92.765 E0.0889
G1 X102.690 Y92.784 E0.0903
G1 X102.690 Y93.350 E0.1185
G1 X102.710 Y93.330 E0.1199
G1 X102.710 Y93.896 E0.1481
G1 X102.690 Y93.916 E0.1495
G1 X102.690 Y94.481 E0.1777
G1 X102.710 Y94.462 E0.1791
G1 X102.710 Y95.027 E0.2074
G1 X102.690 Y95.047 E0.2088
G1 X102.690 Y95.613 E0.2370
G1 X102.710 Y95.593 E0.2384
G1 X102.710 Y95.747 E0.2461
G1 X102.931 Y95.938 E0.2606
G1 X102.917 Y95.952 E0.2616
G1 X103.220 Y96.214 E0.2816
G1 X103.234 Y96.200 E0.2826
G1 X103.538 Y96.462 E0.3026
G1 X103.524 Y96.476 E0.3036
G1 X103.827 Y96.738 E0.3237
G1 X103.841 Y96.724 E0.3246
G1 X104.145 Y96.986 E0.3447
G1 X104.131 Y97.001 E0.3457
G1 X104.434 Y97.263 E0.3657
G1 X104.448 Y97.249 E0.3667
G1 X104.752 Y97.511 E0.3867
G1 X104.738 Y97.525 E0.3877
G1 X105.041 Y97.787 E0.4077
G1 X105.056 Y97.773 E0.4087
G1 X105.133 Y97.840 E0.4138
G1 X105.554 Y97.840 E0.4348
G1 X105.345 Y98.049 E0.4495
G1 X105.473 Y98.160 E0.4580
G1 X105.800 Y98.160 E0.4743
G1 X106.120 Y97.840 E0.4969
G1 X106.190 Y97.840 E0.5004
G1 X106.190 Y97.770 E0.5039
G1 X106.210 Y97.750 E0.5053
G1 X106.210 Y97.184 E0.5335
G1 X106.190 Y97.204 E0.5349
G1 X106.190 Y96.638 E0.5631
G1 X106.210 Y96.618 E0.5645
G1 X106.210 Y96.053 E0.5928
G1 X106.190 Y96.073 E0.5942
G92 E0
G1 E-1.0000 F1800
G1 X105.194 Y102.160 F4800
G1 E0.0000 F1800
G92 E0
G1 X105.514 Y101.840 E0.0226 F775
G1 X106.080 Y101.840 E0.0508
G1 X105.760 Y102.160 E0.0734
G1 X106.190 Y102.160 E0.0949
G1 X106.190 Y102.295 E0.1016
G1 X106.210 Y102.275 E0.1030
G1 X106.210 Y102.841 E0.1312
G1 X106.190 Y102.861 E0.1326
G1 X106.190 Y103.427 E0.1609
G1 X106.210 Y103.407 E0.1623
G1 X106.210 Y103.972 E0.1905
G1 X106.190 Y103.992 E0.1919
G92 E0
G1 E-1.0000 F1800
G1 X102.690 Y104.664 F4800
G1 E0.0000 F1800
G92 E0
G1 X102.710 Y104.644 E0.0014 F775
G1 X102.710 Y105.210 E0.0296
G1 X102.690 Y105.229 E0.0310
G1 X102.690 Y105.795 E0.0592
G1 X102.710 Y105.775 E0.0606
G1 X102.710 Y106.341 E0.0889
G1 X102.690 Y106.361 E0.0903
G1 X102.690 Y106.927 E0.1185
G1 X102.710 Y106.907 E0.1199
G1 X102.710 Y107.472 E0.1481
G1 X102.690 Y107.492 E0.1495
G1 X102.690 Y108.058 E0.1777
G1 X102.710 Y108.038 E0.1791
G1 X102.710 Y108.604 E0.2074
G1 X102.690 Y108.624 E0.2088
G1 X102.690 Y109.189 E0.2370
G1 X102.710 Y109.169 E0.2384
G92 E0
G1 E-1.0000 F1800
; layer 2, Z = 0.57
; outer perimeter
G1 X102.350 Y109.268 F4800
G1 Z0.570 F1000
G1 E0.0000 F1800
G92 E0
G1 X102.350 Y104.088 E0.2584 F493
G1 X105.347 Y101.500 E0.4560
G1 X106.550 Y101.500 E0.5160
G1 X106.550 Y104.600 E0.6706
G1 X105.850 Y104.600 E0.7056
G1 X105.850 Y102.500 E0.8103
G1 X105.260 Y102.500 E0.8398
G1 X103.050 Y104.408 E0.9854
G1 X103.050 Y109.772 E1.2530
G1 X100.714 Y109.464 E1.3706
G1 X98.351 Y108.486 E1.4982
G1 X96.322 Y106.928 E1.6258
G1 X94.765 Y104.899 E1.7534
G1 X93.786 Y102.536 E1.8810
G1 X93.452 Y100.000 E2.0086
G1 X93.786 Y97.464 E2.1363
G1 X94.765 Y95.101 E2.2639
G1 X96.322 Y93.072 E2.3915
G1 X98.351 Y91.514 E2.5191
G1 X100.714 Y90.536 E2.6467
G1 X103.050 Y90.228 E2.7643
G1 X103.050 Y95.592 E3.0318
G1 X105.260 Y97.500 E3.1775
G1 X105.850 Y97.500 E3.2070
G1 X105.850 Y95.400 E3.3117
G1 X106.550 Y95.400 E3.3466
G1 X106.550 Y98.500 E3.5013
G1 X105.347 Y98.500 E3.5613
G1 X102.350 Y95.912 E3.7589
G1 X102.350 Y90.690 E4.0194
G1 X101.192 Y90.846 E4.0777
G1 X99.284 Y91.484 E4.1780
G1 X97.469 Y92.595 E4.2842
G1 X95.951 Y94.086 E4.3904
G1 X94.807 Y95.880 E4.4965
G1 X94.097 Y97.886 E4.6027
G1 X93.856 Y100.000 E4.7089
G1 X94.097 Y102.114 E4.8150
G1 X94.807 Y104.120 E4.9212
G1 X95.951 Y105.914 E5.0273
G1 X97.469 Y107.405 E5.1335
G1 X99.284 Y108.516 E5.2397
G1 X101.196 Y109.155 E5.3402
G1 X102.350 Y109.268 E5.3981
; solid layer
G1 X102.710 Y108.933 F4800
G92 E0
G1 X102.690 Y108.913 E0.0014 F788
G1 X102.690 Y108.347 E0.0296
G1 X102.710 Y108.367 E0.0310
G1 X102.710 Y107.801 E0.0592
G1 X102.690 Y107.781 E0.0606
G1 X102.690 Y107.216 E0.0889
G1 X102.710 Y107.235 E0.0903
G1 X102.710 Y106.670 E0.1185
G1 X102.690 Y106.650 E0.1199
G1 X102.690 Y106.084 E0.1481
G1 X102.710 Y106.104 E0.1495
G1 X102.710 Y105.538 E0.1777
G1 X102.690 Y105.519 E0.1791
G1 X102.690 Y104.953 E0.2074
G1 X102.710 Y104.973 E0.2088
G1 X102.710 Y104.407 E0.2370
G1 X102.690 Y104.387 E0.2384
G1 X102.690 Y104.244 E0.2455
G1 X102.917 Y104.048 E0.2605
G1 X102.931 Y104.062 E0.2615
G1 X103.234 Y103.800 E0.2815
G1 X103.220 Y103.786 E0.2825
G1 X103.524 Y103.524 E0.3025
G1 X103.538 Y103.538 E0.3035
G1 X103.841 Y103.276 E0.3235
G1 X103.827 Y103.262 E0.3245
G1 X104.131 Y102.999 E0.3445
G1 X104.145 Y103.014 E0.3455
G1 X104.449 Y102.751 E0.3655
G1 X104.434 Y102.737 E0.3665
G1 X104.738 Y102.475 E0.3865
G1 X104.752 Y102.489 E0.3875
G1 X105.056 Y102.227 E0.4075
G1 X105.041 Y102.213 E0.4085
G1 X105.345 Y101.951 E0.4285
G1 X105.554 Y102.160 E0.4433
G1 X106.120 Y102.160 E0.4715
G1 X105.800 Y101.840 E0.4941
G1 X106.190 Y102.230 F4800
G92 E0
G1 X106.210 Y102.250 E0.0014 F788
G1 X106.210 Y102.816 E0.0296
G1 X106.190 Y102.796 E0.0310
G1 X106.190 Y103.362 E0.0592
G1 X106.210 Y103.382 E0.0606
G1 X106.210 Y103.947 E0.0889
G1 X106.190 Y103.927 E0.0903
G92 E0
G1 E-1.0000 F1800
G1 X106.190 Y96.008 F4800
G1 E0.0000 F1800
G92 E0
G1 X106.210 Y96.028 E0.0014 F788
G1 X106.210 Y96.593 E0.0296
G1 X106.190 Y96.573 E0.0310
G1 X106.190 Y97.139 E0.0592
G1 X106.210 Y97.159 E0.0606
G1 X106.210 Y97.725 E0.0889
G1 X106.190 Y97.705 E0.0903
G1 X106.190 Y97.840 E0.0970
G1 X105.760 Y97.840 E0.1185
G1 X106.080 Y98.160 E0.1411
G1 X105.514 Y98.160 E0.1693
G1 X105.194 Y97.840 E0.1919
G1 X105.133 Y97.840 E0.1949
G1 X102.710 Y95.747 E0.3546
G1 X102.710 Y95.356 E0.3742
G1 X102.690 Y95.336 E0.3756
G1 X102.690 Y94.771 E0.4038
G1 X102.710 Y94.790 E0.4052
G1 X102.710 Y94.225 E0.4334
G1 X102.690 Y94.205 E0.4348
G1 X102.690 Y93.639 E0.4630
G1 X102.710 Y93.659 E0.4644
G1 X102.710 Y93.093 E0.4927
G1 X102.690 Y93.073 E0.4941
G1 X102.690 Y92.508 E0.5223
G1 X102.710 Y92.528 E0.5237
G1 X102.710 Y91.962 E0.5519
G1 X102.690 Y91.942 E0.5533
G1 X102.690 Y91.376 E0.5815
G1 X102.710 Y91.396 E0.5829
G1 X102.710 Y90.831 E0.6111
G1 X102.690 Y90.811 E0.6125
G92 E0
G1 E-1.0000 F1800
; layer 3, Z = 0.87
; outer perimeter
G1 X102.350 Y90.690 F4800
G1 Z0.870 F1000
G1 E0.0000 F1800
G92 E0
G1 X101.192 Y90.846 E0.0583 F480
G1 X99.284 Y91.484 E0.1587
G1 X97.469 Y92.595 E0.2648
G1 X95.951 Y94.086 E0.3710
G1 X94.807 Y95.880 E0.4771
G1 X94.097 Y97.886 E0.5833
G1 X93.856 Y100.000 E0.6895
G1 X94.097 Y102.114 E0.7956
G1 X94.807 Y104.120 E0.9018
G1 X95.951 Y105.914 E1.0080
G1 X97.469 Y107.405 E1.1141
G1 X99.284 Y108.516 E1.2203
G1 X101.196 Y109.155 E1.3208
G1 X102.350 Y109.268 E1.3787
G1 X102.350 Y104.088 E1.6371
G1 X105.347 Y101.500 E1.8347
G1 X106.550 Y101.500 E1.8947
G1 X106.550 Y104.600 E2.0493
G1 X105.850 Y104.600 E2.0843
G1 X105.850 Y102.500 E2.1890
G1 X105.260 Y102.500 E2.2185
G1 X103.050 Y104.408 E2.3641
G1 X103.050 Y109.772 E2.6317
G1 X100.714 Y109.464 E2.7493
G1 X98.351 Y108.486 E2.8769
G1 X96.322 Y106.928 E3.0045
G1 X94.765 Y104.899 E3.1321
G1 X93.786 Y102.536 E3.2597
G1 X93.452 Y100.000 E3.3873
G1 X93.786 Y97.464 E3.5149
G1 X94.765 Y95.101 E3.6426
G1 X96.322 Y93.072 E3.7702
G1 X98.351 Y91.514 E3.8978
G1 X100.714 Y90.536 E4.0254
G1 X103.050 Y90.228 E4.1429
G1 X103.050 Y95.592 E4.4105
G1 X105.260 Y97.500 E4.5562
G1 X105.850 Y97.500 E4.5857
G1 X105.850 Y95.400 E4.6904
G1 X106.550 Y95.400 E4.7253
G1 X106.550 Y98.500 E4.8800
G1 X105.347 Y98.500 E4.9400
G1 X102.350 Y95.912 E5.1376
G1 X102.350 Y90.690 E5.3981
; infill
G1 X102.690 Y91.376 F4800
G92 E0
G1 X102.710 Y91.396 E0.0014 F960
G1 X102.710 Y92.339 E0.0484
G1 X102.690 Y92.319 E0.0498
G1 X102.690 Y93.262 E0.0969
G1 X102.710 Y93.282 E0.0983
G1 X102.710 Y94.225 E0.1453
G1 X102.690 Y94.205 E0.1467
G1 X102.690 Y95.148 E0.1938
G1 X102.710 Y95.168 E0.1952
G1 X102.710 Y95.747 E0.2241
G1 X105.133 Y97.840 E0.3838
G1 X105.383 Y97.840 E0.3963
G1 X105.703 Y98.160 E0.4188
G1 X106.210 Y98.160 E0.4441
G1 X106.210 Y97.725 E0.4659
G1 X106.190 Y97.705 E0.4673
G1 X106.190 Y96.762 E0.5143
G1 X106.210 Y96.782 E0.5157
G1 X106.210 Y95.839 E0.5627
G1 X106.190 Y95.819 E0.5641
G92 E0
G1 E-1.0000 F1800
G1 X105.611 Y101.840 F4800
G1 E0.0000 F1800
G92 E0
G1 X105.931 Y102.160 E0.0226 F960
G1 X105.133 Y102.160 E0.0624
G1 X105.056 Y102.227 E0.0675
G1 X105.041 Y102.213 E0.0685
G1 X104.536 Y102.650 E0.1019
G1 X104.550 Y102.664 E0.1029
G1 X104.044 Y103.101 E0.1362
G1 X104.030 Y103.087 E0.1372
G1 X103.524 Y103.524 E0.1706
G1 X103.538 Y103.538 E0.1716
G1 X103.032 Y103.975 E0.2049
G1 X103.018 Y103.961 E0.2059
G1 X102.690 Y104.244 E0.2275
G1 X102.690 Y104.576 E0.2441
G1 X102.710 Y104.596 E0.2455
G1 X102.710 Y105.538 E0.2925
G1 X102.690 Y105.519 E0.2939
G1 X102.690 Y106.461 E0.3409
G1 X102.710 Y106.481 E0.3423
G1 X102.710 Y107.424 E0.3894
G1 X102.690 Y107.404 E0.3908
G1 X102.690 Y108.347 E0.4378
G1 X102.710 Y108.367 E0.4392
G1 X102.710 Y109.310 E0.4863
G1 X102.690 Y109.290 E0.4877
G92 E0
G1 E-1.0000 F1800
; layer 4, Z = 1.17
; outer perimeter
G1 X102.350 Y109.268 F4800
G1 Z1.170 F1000
G1 E0.0000 F1800
G92 E0
G1 X102.350 Y104.088 E0.2584 F480
G1 X105.347 Y101.500 E0.4560
G1 X106.550 Y101.500 E0.5160
G1 X106.550 Y104.600 E0.6706
G1 X105.850 Y104.600 E0.7056
G1 X105.850 Y102.500 E0.8103
G1 X105.260 Y102.500 E0.8398
G1 X103.050 Y104.408 E0.9854
G1 X103.050 Y109.772 E1.2530
G1 X100.714 Y109.464 E1.3706
G1 X98.351 Y108.486 E1.4982
G1 X96.322 Y106.928 E1.6258
