; G-Code generated by Simplify3D(R) Version 3.0.2
; Mar 29, 2016 at 1:50:33 PM
; Settings Summary
;   processName,Process1
;   applyToModels,WireCover10mm
;   profileName,8" Pegasus
;   profileVersion,2016-03-29 10:44:15
;   baseProfile,Default
;   printMaterial,PLA
;   printQuality,Fast
;   printExtruders,
;   extruderName,Extruder 1
;   extruderToolheadNumber,0
;   extruderDiameter,0.4
;   extruderAutoWidth,0
;   extruderWidth,0.4
;   extrusionMultiplier,0.9
;   extruderUseRetract,1
;   extruderRetractionDistance,1
;   extruderExtraRestartDistance,0
;   extruderRetractionZLift,0
;   extruderRetractionSpeed,1800
;   extruderUseCoasting,0
;   extruderCoastingDistance,0.2
;   extruderUseWipe,0
;   extruderWipeDistance,5
;   primaryExtruder,0
;   layerHeight,0.3
;   topSolidLayers,5
;   bottomSolidLayers,2
;   perimeterOutlines,1
;   printPerimetersInsideOut,1
;   startPointOption,2
;   startPointOriginX,0
;   startPointOriginY,0
;   startPointOriginZ,300
;   sequentialIslands,0
;   spiralVaseMode,0
;   firstLayerHeightPercentage,90
;   firstLayerWidthPercentage,100
;   firstLayerUnderspeed,0.5
;   useRaft,0
;   raftExtruder,0
;   raftLayers,3
;   raftOffset,3
;   raftSeparationDistance,0.14
;   raftInfill,85
;   disableRaftBaseLayers,0
;   useSkirt,0
;   skirtExtruder,0
;   skirtLayers,1
;   skirtOutlines,2
;   skirtOffset,4
;   usePrimePillar,0
;   primePillarExtruder,999
;   primePillarWidth,12
;   primePillarLocation,7
;   primePillarSpeedMultiplier,1
;   useOozeShield,0
;   oozeShieldExtruder,999
;   oozeShieldOffset,2
;   oozeShieldOutlines,1
;   oozeShieldSidewallShape,1
;   oozeShieldSidewallAngle,30
;   oozeShieldSpeedMultiplier,1
;   infillExtruder,0
;   internalInfillPattern,Rectilinear
;   externalInfillPattern,Rectilinear
;   infillPercentage,60
;   outlineOverlapPercentage,15
;   infillExtrusionWidthPercentage,100
;   minInfillLength,5
;   infillLayerInterval,1
;   infillAngles,45,-45
;   overlapInfillAngles,0
;   generateSupport,1
;   supportExtruder,0
;   supportInfillPercentage,25
;   supportExtraInflation,0
;   denseSupportLayers,0
;   denseSupportInfillPercentage,70
;   supportLayerInterval,1
;   supportHorizontalPartOffset,0.3
;   supportUpperSeparationLayers,1
;   supportLowerSeparationLayers,1
;   supportType,0
;   supportGridSpacing,4
;   maxOverhangAngle,45
;   supportAngles,0
;   temperatureName,Extruder 1 Temperature,Heated Bed
;   temperatureNumber,0,0
;   temperatureSetpointCount,1,1
;   temperatureSetpointLayers,1,1
;   temperatureSetpointTemperatures,210,80
;   temperatureStabilizeAtStartup,1,1
;   temperatureHeatedBed,0,1
;   temperatureRelayBetweenLayers,0,0
;   temperatureRelayBetweenLoops,0,0
;   fanLayers,1,2
;   fanSpeeds,0,100
;   blipFanToFullPower,0
;   adjustSpeedForCooling,1
;   minSpeedLayerTime,15
;   minCoolingSpeedSlowdown,20
;   increaseFanForCooling,0
;   minFanLayerTime,45
;   maxCoolingFanSpeed,100
;   increaseFanForBridging,0
;   bridgingFanSpeed,100
;   use5D,1
;   relativeEdistances,0
;   allowEaxisZeroing,1
;   independentExtruderAxes,0
;   includeM10123,0
;   stickySupport,1
;   applyToolheadOffsets,0
;   gcodeXoffset,0
;   gcodeYoffset,0
;   gcodeZoffset,0
;   overrideMachineDefinition,1
;   machineTypeOverride,0
;   strokeXoverride,200
;   strokeYoverride,200
;   strokeZoverride,200
;   originOffsetXoverride,0
;   originOffsetYoverride,0
;   originOffsetZoverride,0
;   homeXdirOverride,-1
;   homeYdirOverride,-1
;   homeZdirOverride,-1
;   flipXoverride,1
;   flipYoverride,-1
;   flipZoverride,1
;   toolheadOffsets,0,0|0,0|0,0|0,0|0,0|0,0
;   overrideFirmwareConfiguration,1
;   firmwareTypeOverride,RepRap (Marlin/Repetier/Sprinter)
;   GPXconfigOverride,r2
;   baudRateOverride,250000
;   overridePrinterModels,0
;   printerModelsOverride
;   startingGcode,G28 ; home all axes
;   layerChangeGcode,
;   retractionGcode,
;   toolChangeGcode,
;   endingGcode,M104 S0 ; turn off extruder,M140 S0 ; turn off bed,G28 X0  ; home X axis,G28 Y0  ; home Y axis,M84 ; disable motors
;   createX3G,0
;   celebration,0
;   celebrationSong,Random Song
;   createMB5G,0
;   postProcessing,
;   defaultSpeed,4800
;   outlineUnderspeed,0.5
;   solidInfillUnderspeed,0.8
;   supportUnderspeed,0.8
;   rapidXYspeed,4800
;   rapidZspeed,1000
;   minBridgingArea,50
;   bridgingExtraInflation,0
;   bridgingExtrusionMultiplier,1
;   bridgingSpeedMultiplier,1
;   filamentDiameter,1.75
;   filamentPricePerKg,25
;   filamentDensity,1.25
;   useMinPrintHeight,0
;   minPrintHeight,0
;   useMaxPrintHeight,0
;   maxPrintHeight,0
;   useDiaphragm,0
;   diaphragmLayerInterval,20
;   robustSlicing,1
;   mergeAllIntoSolid,0
;   onlyRetractWhenCrossingOutline,1
;   retractBetweenLayers,1
;   useRetractionMinTravel,0
;   retractionMinTravel,3
;   retractWhileWiping,0
;   onlyWipeOutlines,1
;   avoidCrossingOutline,0
;   maxMovementDetourFactor,3
;   toolChangeRetractionDistance,12
;   toolChangeExtraRestartDistance,-0.5
;   toolChangeRetractionSpeed,600
;   allowThinWallGapFill,1
;   thinWallAllowedOverlapPercentage,10
;   horizontalSizeCompensation,0
G90
M82
M106 S0
M140 S80
M190 S80
M104 S210 T0
M109 S210 T0
G28 ; home all axes
G92 E0
G1 E-1.0000 F1800
G1 Z0.270 F1000
; layer 1, Z = 0.27
T0
; tool H0.300 W0.400
; outer perimeter
G1 X96.322 Y93.072 F4800
G1 E0.0000 F540
G92 E0
G1 X98.351 Y91.514 E0.1149 F484
G1 X100.714 Y90.536 E0.2297
G1 X103.050 Y90.228 E0.3355
G1 X103.050 Y95.592 E0.5763
G1 X105.260 Y97.500 E0.7074
G1 X105.850 Y97.500 E0.7339
G1 X105.850 Y95.400 E0.8282
G1 X106.550 Y95.400 E0.8597
G1 X106.550 Y98.500 E0.9988
G1 X105.347 Y98.500 E1.0529
G1 X102.350 Y95.912 E1.2307
G1 X102.350 Y90.690 E1.4651
G1 X101.192 Y90.846 E1.5176
G1 X99.284 Y91.484 E1.6079
G1 X97.469 Y92.595 E1.7035
G1 X95.951 Y94.086 E1.7990
G1 X94.807 Y95.880 E1.8945
G1 X94.097 Y97.886 E1.9901
G1 X93.856 Y100.000 E2.0856
G1 X94.097 Y102.114 E2.1812
G1 X94.807 Y104.120 E2.2767
G1 X95.951 Y105.914 E2.3723
G1 X97.469 Y107.405 E2.4678
G1 X99.284 Y108.516 E2.5634
G1 X101.196 Y109.155 E2.6539
G1 X102.350 Y109.268 E2.7059
G1 X102.350 Y104.088 E2.9385
G1 X105.347 Y101.500 E3.1163
G1 X106.550 Y101.500 E3.1703
G1 X106.550 Y104.600 E3.3095
G1 X105.850 Y104.600 E3.3410
G1 X105.850 Y102.500 E3.4352
G1 X105.260 Y102.500 E3.4618
G1 X103.050 Y104.408 E3.5929
G1 X103.050 Y109.772 E3.8337
G1 X100.714 Y109.464 E3.9395
G1 X98.351 Y108.486 E4.0543
G1 X96.322 Y106.928 E4.1692
G1 X94.765 Y104.899 E4.2840
G1 X93.786 Y102.536 E4.3989
G1 X93.452 Y100.000 E4.5137
G1 X93.786 Y97.464 E4.6286
G1 X94.765 Y95.101 E4.7434
G1 X96.322 Y93.072 E4.8583
G92 E0
G1 E-1.0000 F1800
; solid layer
G1 X102.690 Y91.087 F4800
G1 E0.0000 F1800
G92 E0
G1 X102.710 Y91.067 E0.0013 F775
G1 X102.710 Y91.633 E0.0267
G1 X102.690 Y91.653 E0.0279
G1 X102.690 Y92.219 E0.0533
G1 X102.710 Y92.199 E0.0546
G1 X102.710 Y92.765 E0.0800
G1 X102.690 Y92.784 E0.0812
G1 X102.690 Y93.350 E0.1066
G1 X102.710 Y93.330 E0.1079
G1 X102.710 Y93.896 E0.1333
G1 X102.690 Y93.916 E0.1346
G1 X102.690 Y94.481 E0.1600
G1 X102.710 Y94.462 E0.1612
G1 X102.710 Y95.027 E0.1866
G1 X102.690 Y95.047 E0.1879
G1 X102.690 Y95.613 E0.2133
G1 X102.710 Y95.593 E0.2145
G1 X102.710 Y95.747 E0.2215
G1 X102.931 Y95.938 E0.2346
G1 X102.917 Y95.952 E0.2355
G1 X103.220 Y96.214 E0.2535
G1 X103.234 Y96.200 E0.2544
G1 X103.538 Y96.462 E0.2724
G1 X103.524 Y96.476 E0.2733
G1 X103.827 Y96.738 E0.2913
G1 X103.841 Y96.724 E0.2922
G1 X104.145 Y96.986 E0.3102
G1 X104.131 Y97.001 E0.3111
G1 X104.434 Y97.263 E0.3291
G1 X104.448 Y97.249 E0.3300
G1 X104.752 Y97.511 E0.3480
G1 X104.738 Y97.525 E0.3489
G1 X105.041 Y97.787 E0.3669
G1 X105.056 Y97.773 E0.3678
G1 X105.133 Y97.840 E0.3724
G1 X105.554 Y97.840 E0.3913
G1 X105.345 Y98.049 E0.4046
G1 X105.473 Y98.160 E0.4122
G1 X105.800 Y98.160 E0.4269
G1 X106.120 Y97.840 E0.4472
G1 X106.190 Y97.840 E0.4503
G1 X106.190 Y97.770 E0.4535
G1 X106.210 Y97.750 E0.4548
G1 X106.210 Y97.184 E0.4802
G1 X106.190 Y97.204 E0.4814
G1 X106.190 Y96.638 E0.5068
G1 X106.210 Y96.618 E0.5081
G1 X106.210 Y96.053 E0.5335
G1 X106.190 Y96.073 E0.5347
G92 E0
G1 E-1.0000 F1800
G1 X105.194 Y102.160 F4800
G1 E0.0000 F1800
G92 E0
G1 X105.514 Y101.840 E0.0203 F775
G1 X106.080 Y101.840 E0.0457
G1 X105.760 Y102.160 E0.0660
G1 X106.190 Y102.160 E0.0854
G1 X106.190 Y102.295 E0.0914
G1 X106.210 Y102.275 E0.0927
G1 X106.210 Y102.841 E0.1181
G1 X106.190 Y102.861 E0.1194
G1 X106.190 Y103.427 E0.1448
G1 X106.210 Y103.407 E0.1460
G1 X106.210 Y103.972 E0.1714
G1 X106.190 Y103.992 E0.1727
G92 E0
G1 E-1.0000 F1800
G1 X102.690 Y104.664 F4800
G1 E0.0000 F1800
G92 E0
G1 X102.710 Y104.644 E0.0013 F775
G1 X102.710 Y105.210 E0.0267
G1 X102.690 Y105.229 E0.0279
G1 X102.690 Y105.795 E0.0533
G1 X102.710 Y105.775 E0.0546
G1 X102.710 Y106.341 E0.0800
G1 X102.690 Y106.361 E0.0812
G1 X102.690 Y106.927 E0.1066
G1 X102.710 Y106.907 E0.1079
G1 X102.710 Y107.472 E0.1333
G1 X102.690 Y107.492 E0.1346
G1 X102.690 Y108.058 E0.1600
G1 X102.710 Y108.038 E0.1612
G1 X102.710 Y108.604 E0.1866
G1 X102.690 Y108.624 E0.1879
G1 X102.690 Y109.189 E0.2133
G1 X102.710 Y109.169 E0.2145
G92 E0
G1 E-1.0000 F1800
; layer 2, Z = 0.57
M106 S255
; outer perimeter
G1 X102.350 Y109.268 F4800
G1 Z0.570 F1000
G1 E0.0000 F1800
G92 E0
G1 X102.350 Y104.088 E0.2326 F493
G1 X105.347 Y101.500 E0.4104
G1 X106.550 Y101.500 E0.4644
G1 X106.550 Y104.600 E0.6036
G1 X105.850 Y104.600 E0.6350
G1 X105.850 Y102.500 E0.7293
G1 X105.260 Y102.500 E0.7558
G1 X103.050 Y104.408 E0.8869
G1 X103.050 Y109.772 E1.1277
G1 X100.714 Y109.464 E1.2335
G1 X98.351 Y108.486 E1.3484
G1 X96.322 Y106.928 E1.4632
G1 X94.765 Y104.899 E1.5781
G1 X93.786 Y102.536 E1.6929
G1 X93.452 Y100.000 E1.8078
G1 X93.786 Y97.464 E1.9226
G1 X94.765 Y95.101 E2.0375
G1 X96.322 Y93.072 E2.1523
G1 X98.351 Y91.514 E2.2672
G1 X100.714 Y90.536 E2.3820
G1 X103.050 Y90.228 E2.4878
G1 X103.050 Y95.592 E2.7287
G1 X105.260 Y97.500 E2.8598
G1 X105.850 Y97.500 E2.8863
G1 X105.850 Y95.400 E2.9806
G1 X106.550 Y95.400 E3.0120
G1 X106.550 Y98.500 E3.1512
G1 X105.347 Y98.500 E3.2052
G1 X102.350 Y95.912 E3.3830
G1 X102.350 Y90.690 E3.6175
G1 X101.192 Y90.846 E3.6699
G1 X99.284 Y91.484 E3.7602
G1 X97.469 Y92.595 E3.8558
G1 X95.951 Y94.086 E3.9513
G1 X94.807 Y95.880 E4.0469
G1 X94.097 Y97.886 E4.1424
G1 X93.856 Y100.000 E4.2380
G1 X94.097 Y102.114 E4.3335
G1 X94.807 Y104.120 E4.4291
G1 X95.951 Y105.914 E4.5246
G1 X97.469 Y107.405 E4.6202
G1 X99.284 Y108.516 E4.7157
G1 X101.196 Y109.155 E4.8062
G1 X102.350 Y109.268 E4.8583
; solid layer
G1 X102.710 Y108.933 F4800
G92 E0
G1 X102.690 Y108.913 E0.0013 F788
G1 X102.690 Y108.347 E0.0267
G1 X102.710 Y108.367 E0.0279
G1 X102.710 Y107.801 E0.0533
G1 X102.690 Y107.781 E0.0546
G1 X102.690 Y107.216 E0.0800
G1 X102.710 Y107.235 E0.0812
G1 X102.710 Y106.670 E0.1066
G1 X102.690 Y106.650 E0.1079
G1 X102.690 Y106.084 E0.1333
G1 X102.710 Y106.104 E0.1346
G1 X102.710 Y105.538 E0.1600
G1 X102.690 Y105.519 E0.1612
G1 X102.690 Y104.953 E0.1866
G1 X102.710 Y104.973 E0.1879
G1 X102.710 Y104.407 E0.2133
G1 X102.690 Y104.387 E0.2145
G1 X102.690 Y104.244 E0.2210
G1 X102.917 Y104.048 E0.2344
G1 X102.931 Y104.062 E0.2353
G1 X103.234 Y103.800 E0.2533
G1 X103.220 Y103.786 E0.2542
G1 X103.524 Y103.524 E0.2722
G1 X103.538 Y103.538 E0.2731
G1 X103.841 Y103.276 E0.2911
G1 X103.827 Y103.262 E0.2920
G1 X104.131 Y102.999 E0.3101
G1 X104.145 Y103.014 E0.3110
G1 X104.449 Y102.751 E0.3290
G1 X104.434 Y102.737 E0.3299
G1 X104.738 Y102.475 E0.3479
G1 X104.752 Y102.489 E0.3488
G1 X105.056 Y102.227 E0.3668
G1 X105.041 Y102.213 E0.3677
G1 X105.345 Y101.951 E0.3857
G1 X105.554 Y102.160 E0.3990
G1 X106.120 Y102.160 E0.4244
G1 X105.800 Y101.840 E0.4447
G1 X106.190 Y102.230 F4800
G92 E0
G1 X106.210 Y102.250 E0.0013 F788
G1 X106.210 Y102.816 E0.0267
G1 X106.190 Y102.796 E0.0279
G1 X106.190 Y103.362 E0.0533
G1 X106.210 Y103.382 E0.0546
G1 X106.210 Y103.947 E0.0800
G1 X106.190 Y103.927 E0.0812
G92 E0
G1 E-1.0000 F1800
G1 X106.190 Y96.008 F4800
G1 E0.0000 F1800
G92 E0
G1 X106.210 Y96.028 E0.0013 F788
G1 X106.210 Y96.593 E0.0267
G1 X106.190 Y96.573 E0.0279
G1 X106.190 Y97.139 E0.0533
G1 X106.210 Y97.159 E0.0546
G1 X106.210 Y97.725 E0.0800
G1 X106.190 Y97.705 E0.0812
G1 X106.190 Y97.840 E0.0873
G1 X105.760 Y97.840 E0.1066
G1 X106.080 Y98.160 E0.1270
G1 X105.514 Y98.160 E0.1524
G1 X105.194 Y97.840 E0.1727
G1 X105.133 Y97.840 E0.1754
G1 X102.710 Y95.747 E0.3192
G1 X102.710 Y95.356 E0.3367
G1 X102.690 Y95.336 E0.3380
G1 X102.690 Y94.771 E0.3634
G1 X102.710 Y94.790 E0.3647
G1 X102.710 Y94.225 E0.3901
G1 X102.690 Y94.205 E0.3913
G1 X102.690 Y93.639 E0.4167
G1 X102.710 Y93.659 E0.4180
G1 X102.710 Y93.093 E0.4434
G1 X102.690 Y93.073 E0.4446
G1 X102.690 Y92.508 E0.4700
G1 X102.710 Y92.528 E0.4713
G1 X102.710 Y91.962 E0.4967
G1 X102.690 Y91.942 E0.4980
G1 X102.690 Y91.376 E0.5234
G1 X102.710 Y91.396 E0.5246
G1 X102.710 Y90.831 E0.5500
G1 X102.690 Y90.811 E0.5513
G92 E0
G1 E-1.0000 F1800
; layer 3, Z = 0.87
; outer perimeter
G1 X102.350 Y90.690 F4800
G1 Z0.870 F1000
G1 E0.0000 F1800
G92 E0
G1 X101.192 Y90.846 E0.0525 F480
G1 X99.284 Y91.484 E0.1428
G1 X97.469 Y92.595 E0.2383
G1 X95.951 Y94.086 E0.3339
G1 X94.807 Y95.880 E0.4294
G1 X94.097 Y97.886 E0.5250
G1 X93.856 Y100.000 E0.6205
G1 X94.097 Y102.114 E0.7161
G1 X94.807 Y104.120 E0.8116
G1 X95.951 Y105.914 E0.9072
G1 X97.469 Y107.405 E1.0027
G1 X99.284 Y108.516 E1.0983
G1 X101.196 Y109.155 E1.1887
G1 X102.350 Y109.268 E1.2408
G1 X102.350 Y104.088 E1.4734
G1 X105.347 Y101.500 E1.6512
G1 X106.550 Y101.500 E1.7052
G1 X106.550 Y104.600 E1.8444
G1 X105.850 Y104.600 E1.8758
G1 X105.850 Y102.500 E1.9701
G1 X105.260 Y102.500 E1.9966
G1 X103.050 Y104.408 E2.1277
G1 X103.050 Y109.772 E2.3686
G1 X100.714 Y109.464 E2.4743
G1 X98.351 Y108.486 E2.5892
G1 X96.322 Y106.928 E2.7041
G1 X94.765 Y104.899 E2.8189
G1 X93.786 Y102.536 E2.9337
G1 X93.452 Y100.000 E3.0486
G1 X93.786 Y97.464 E3.1635
G1 X94.765 Y95.101 E3.2783
G1 X96.322 Y93.072 E3.3932
G1 X98.351 Y91.514 E3.5080
G1 X100.714 Y90.536 E3.6229
G1 X103.050 Y90.228 E3.7287
G1 X103.050 Y95.592 E3.9695
G1 X105.260 Y97.500 E4.1006
G1 X105.850 Y97.500 E4.1271
G1 X105.850 Y95.400 E4.2214
G1 X106.550 Y95.400 E4.2528
G1 X106.550 Y98.500 E4.3920
G1 X105.347 Y98.500 E4.4460
G1 X102.350 Y95.912 E4.6238
G1 X102.350 Y90.690 E4.8583
; infill
G1 X102.690 Y91.376 F4800
G92 E0
G1 X102.710 Y91.396 E0.0013 F960
G1 X102.710 Y92.339 E0.0436
G1 X102.690 Y92.319 E0.0449
G1 X102.690 Y93.262 E0.0872
G1 X102.710 Y93.282 E0.0884
G1 X102.710 Y94.225 E0.1308
G1 X102.690 Y94.205 E0.1320
G1 X102.690 Y95.148 E0.1744
G1 X102.710 Y95.168 E0.1756
G1 X102.710 Y95.747 E0.2017
G1 X105.133 Y97.840 E0.3454
G1 X105.383 Y97.840 E0.3566
G1 X105.703 Y98.160 E0.3769
G1 X106.210 Y98.160 E0.3997
G1 X106.210 Y97.725 E0.4193
G1 X106.190 Y97.705 E0.4205
G1 X106.190 Y96.762 E0.4629
G1 X106.210 Y96.782 E0.4641
G1 X106.210 Y95.839 E0.5065
G1 X106.190 Y95.819 E0.5077
G92 E0
G1 E-1.0000 F1800
G1 X105.611 Y101.840 F4800
G1 E0.0000 F1800
G92 E0
G1 X105.931 Y102.160 E0.0203 F960
G1 X105.133 Y102.160 E0.0562
G1 X105.056 Y102.227 E0.0608
G1 X105.041 Y102.213 E0.0617
G1 X104.536 Y102.650 E0.0917
G1 X104.550 Y102.664 E0.0926
G1 X104.044 Y103.101 E0.1226
G1 X104.030 Y103.087 E0.1235
G1 X103.524 Y103.524 E0.1535
G1 X103.538 Y103.538 E0.1544
G1 X103.032 Y103.975 E0.1844
G1 X103.018 Y103.961 E0.1853
G1 X102.690 Y104.244 E0.2047
G1 X102.690 Y104.576 E0.2197
G1 X102.710 Y104.596 E0.2209
G1 X102.710 Y105.538 E0.2633
G1 X102.690 Y105.519 E0.2645
G1 X102.690 Y106.461 E0.3068
G1 X102.710 Y106.481 E0.3081
G1 X102.710 Y107.424 E0.3504
G1 X102.690 Y107.404 E0.3517
G1 X102.690 Y108.347 E0.3940
G1 X102.710 Y108.367 E0.3953
G1 X102.710 Y109.310 E0.4376
G1 X102.690 Y109.290 E0.4389
G92 E0
G1 E-1.0000 F1800
; layer 4, Z = 1.17
; outer perimeter
G1 X102.350 Y109.268 F4800
G1 Z1.170 F1000
G1 E0.0000 F1800
G92 E0
G1 X102.350 Y104.088 E0.2326 F480
G1 X105.347 Y101.500 E0.4104
G1 X106.550 Y101.500 E0.4644
G1 X106.550 Y104.600 E0.6036
G1 X105.850 Y104.600 E0.6350
G1 X105.850 Y102.500 E0.7293
G1 X105.260 Y102.500 E0.7558
G1 X103.050 Y104.408 E0.8869
G1 X103.050 Y109.772 E1.1277
G1 X100.714 Y109.464 E1.2335
G1 X98.351 Y108.486 E1.3484
